;FLAVOR:Marlin
;TIME:4373
;Filament used: 0m, 8.18235m
;Layer height: 0.32
;MINX:66.773
;MINY:66.773
;MINZ:0.2
;MAXX:188.227
;MAXY:182.007
;MAXZ:4.04
;TARGET_MACHINE.NAME:Geeetech MizarM
;Generated with Cura_SteamEngine 5.6.0
T1
M82 ;absolute extrusion mode
;Official open-source firmware for MizarM: https://github.com/Geeetech3D/Mizar-M 

M104 S205 ; Set Hotend Temperature
M190 S55 ; Wait for Bed Temperature
M109 S205 ; Wait for Hotend Temperature
G92 E0 ; Reset Extruder
G28 ; Home all axes
M107 P0 ;Off Main Fan
M107 P1 ;Off Aux Fan
M2012 P8 S1 F100 ; ON Light
;M106 P0 S383 ; ON MainFan 150% if need
;M106 P1 S255 ; ON Aux Fan 100% if need
G1 Z5.0 F3000 ;Move Z Axis up little to prevent scratching of Heat Bed
G1 X0.1 Y20 Z0.8 F5000 ; Move to start position
G1 X0.1 Y200.0 Z1.2 F1500 E30 ; Draw the first line
G92 E0 ; Reset Extruder
G1 X0.4 Y200.0 Z1.2 F3000 ; Move to side a little
G1 X0.4 Y20 Z1.2 F1500 E25 ; Draw the second line
G92 E0 ; Reset Extruder
G1 Z2.0 F3000 ; Move Z Axis up little to prevent scratching of Heat Bed
G1 X5 Y20 Z0.4 F3000.0 ; Scrape off nozzle residue
G92 E0
G92 E0
G1 F2100 E-6
;LAYER_COUNT:13
;LAYER:0
M107
M104 T0 S175
G0 F3000 X117.579 Y75.073 Z0.2
;TYPE:SKIRT
G1 F2100 E0
G1 F1500 X118.555 Y74.131 E0.05075
G1 X119.745 Y73.056 E0.11076
G1 X120.513 Y72.447 E0.14744
G1 X121.588 Y71.635 E0.19784
G1 X122.572 Y70.99 E0.24187
G1 X123.578 Y70.364 E0.2862
G1 X124.711 Y69.758 E0.33428
G1 X125.645 Y69.286 E0.37344
G1 X126.648 Y68.854 E0.4143
G1 X127.786 Y68.395 E0.46022
G1 X129.194 Y67.937 E0.51562
G1 X130.035 Y67.686 E0.54846
G1 X130.901 Y67.479 E0.58177
G1 X132.261 Y67.188 E0.63381
G1 X133.745 Y66.978 E0.68989
G1 X134.623 Y66.876 E0.72297
G1 X135.526 Y66.822 E0.75682
G1 X136.922 Y66.773 E0.80908
G1 X137.894 Y66.8 E0.84547
G1 X139.258 Y66.871 E0.89657
G1 X140.327 Y66.997 E0.93685
G1 X141.545 Y67.168 E0.98287
G1 X143.052 Y67.488 E1.04052
G1 X143.837 Y67.674 E1.0707
G1 X144.928 Y68.002 E1.11333
G1 X146.05 Y68.368 E1.15749
G1 X147.442 Y68.928 E1.21363
G1 X148.222 Y69.265 E1.24543
G1 X149.219 Y69.766 E1.28718
G1 X150.28 Y70.33 E1.33214
G1 X151.529 Y71.108 E1.3872
G1 X152.271 Y71.597 E1.42045
G1 X153.332 Y72.393 E1.47008
G1 X154.119 Y73.013 E1.50757
G1 X155.18 Y73.967 E1.56096
G1 X156.101 Y74.837 E1.60836
G1 X179.927 Y98.664 E2.86918
G1 X180.857 Y99.626 E2.91924
G1 X181.945 Y100.831 E2.97999
G1 X182.774 Y101.885 E3.03017
G1 X183.375 Y102.689 E3.06773
G1 X183.886 Y103.462 E3.1024
G1 X184.615 Y104.627 E3.15382
G1 X185.184 Y105.683 E3.19871
G1 X185.709 Y106.723 E3.2423
G1 X186.133 Y107.702 E3.28222
G1 X186.605 Y108.869 E3.32932
G1 X187.013 Y110.118 E3.37849
G1 X187.312 Y111.115 E3.41743
G1 X187.567 Y112.193 E3.45888
G1 X187.814 Y113.359 E3.50348
G1 X187.98 Y114.502 E3.5467
G1 X188.125 Y115.702 E3.59192
G1 X188.201 Y117.154 E3.64633
G1 X188.227 Y118.018 E3.67867
G1 X188.2 Y118.98 E3.71468
G1 X188.129 Y120.337 E3.76553
G1 X187.944 Y121.853 E3.82267
G1 X187.827 Y122.655 E3.853
G1 X187.52 Y124.102 E3.90835
G1 X187.325 Y124.926 E3.94003
G1 X186.998 Y126.013 E3.98251
G1 X186.633 Y127.135 E4.02665
G1 X186.073 Y128.525 E4.08273
G1 X185.731 Y129.317 E4.11501
G1 X185.133 Y130.499 E4.16457
G1 X184.669 Y131.364 E4.2013
G1 X183.879 Y132.633 E4.25723
G1 X183.423 Y133.327 E4.28831
G1 X182.561 Y134.477 E4.34208
G1 X181.973 Y135.222 E4.37759
G1 X181.005 Y136.295 E4.43167
G1 X180.185 Y137.164 E4.47637
G1 X148.114 Y169.234 E6.17343
G1 X146.783 Y170.522 E6.24274
G1 X145.84 Y171.396 E6.29085
G1 X144.65 Y172.413 E6.34942
G1 X143.54 Y173.306 E6.40273
G1 X142.493 Y174.084 E6.45153
G1 X141.331 Y174.899 E6.50464
G1 X140.211 Y175.623 E6.55454
G1 X139.014 Y176.351 E6.60696
G1 X137.873 Y176.987 E6.65584
G1 X136.584 Y177.661 E6.71027
G1 X135.463 Y178.191 E6.75667
G1 X134.147 Y178.773 E6.81051
G1 X132.91 Y179.264 E6.86031
G1 X131.835 Y179.661 E6.90319
G1 X130.303 Y180.16 E6.96347
G1 X128.948 Y180.556 E7.0163
G1 X127.831 Y180.838 E7.0594
G1 X126.333 Y181.175 E7.11686
G1 X125.141 Y181.395 E7.16221
G1 X123.599 Y181.636 E7.22061
G1 X122.351 Y181.78 E7.26762
G1 X120.924 Y181.908 E7.32123
G1 X119.567 Y181.976 E7.37207
G1 X118.19 Y182.007 E7.4236
G1 X116.84 Y181.986 E7.47412
G1 X115.444 Y181.926 E7.52641
G1 X114.151 Y181.821 E7.57495
G1 X112.72 Y181.667 E7.6288
G1 X111.47 Y181.482 E7.67608
G1 X110.06 Y181.237 E7.72963
G1 X108.885 Y180.986 E7.77459
G1 X107.369 Y180.618 E7.83296
G1 X106.101 Y180.257 E7.88229
G1 X105.009 Y179.919 E7.92506
G1 X103.531 Y179.397 E7.98372
G1 X102.2 Y178.882 E8.03712
G1 X101.002 Y178.364 E8.08595
G1 X99.712 Y177.764 E8.13919
G1 X98.695 Y177.245 E8.18191
G1 X97.317 Y176.494 E8.24063
G1 X96.149 Y175.794 E8.29158
G1 X94.942 Y175.027 E8.34509
G1 X93.969 Y174.354 E8.38936
G1 X92.794 Y173.497 E8.44378
G1 X91.698 Y172.629 E8.49609
G1 X90.62 Y171.725 E8.54874
G1 X89.71 Y170.903 E8.59462
G1 X89.284 Y170.505 E8.61643
G1 X87.97 Y169.234 E8.68484
G1 X75.012 Y156.274 E9.37058
G1 X74.309 Y155.551 E9.40832
G1 X73.61 Y154.792 E9.44693
G1 X73.043 Y154.153 E9.47889
G1 X72.125 Y152.983 E9.53454
G1 X71.633 Y152.322 E9.56537
G1 X70.886 Y151.179 E9.61646
G1 X70.363 Y150.335 E9.65361
G1 X69.764 Y149.216 E9.70111
G1 X69.279 Y148.255 E9.74138
G1 X68.862 Y147.283 E9.78096
G1 X68.396 Y146.132 E9.82742
G1 X67.937 Y144.721 E9.88294
G1 X67.686 Y143.88 E9.91578
G1 X67.479 Y143.014 E9.9491
G1 X67.188 Y141.656 E10.00107
G1 X66.977 Y140.167 E10.05734
G1 X66.873 Y139.269 E10.09116
G1 X66.799 Y137.846 E10.14448
G1 X66.773 Y136.982 E10.17682
G1 X66.8 Y136.02 E10.21283
G1 X66.871 Y134.663 E10.26368
G1 X67.056 Y133.147 E10.32082
G1 X67.174 Y132.342 E10.35127
G1 X67.488 Y130.863 E10.40784
G1 X67.674 Y130.078 E10.43803
G1 X68.002 Y128.987 E10.48066
G1 X68.367 Y127.865 E10.5248
G1 X68.927 Y126.475 E10.58088
G1 X69.269 Y125.683 E10.61316
G1 X69.867 Y124.501 E10.66272
G1 X70.331 Y123.636 E10.69945
G1 X71.121 Y122.367 E10.75538
G1 X71.577 Y121.673 E10.78646
G1 X72.44 Y120.522 E10.84028
G1 X73.034 Y119.77 E10.87614
G1 X73.998 Y118.7 E10.93003
G1 X74.815 Y117.836 E10.97452
G1 X117.579 Y75.073 E13.23742
G1 F2100 E7.23742
G0 F3000 X135.899 Y84.369
G1 F2100 E13.23742
G1 F1500 X136.174 Y84.024 E13.25393
G1 X136.517 Y83.75 E13.27036
G1 X136.919 Y83.557 E13.28704
G1 X137.345 Y83.46 E13.30339
G1 X137.785 Y83.46 E13.31985
G1 X138.211 Y83.557 E13.3362
G1 X138.613 Y83.75 E13.35289
G1 X138.956 Y84.024 E13.36931
G1 X139.23 Y84.367 E13.38574
G1 X139.423 Y84.769 E13.40243
G1 X139.52 Y85.195 E13.41877
G1 X139.52 Y85.636 E13.43527
G1 X139.422 Y86.065 E13.45174
G1 X139.229 Y86.466 E13.46839
G1 X138.959 Y86.804 E13.48458
G1 X138.613 Y87.08 E13.50114
G1 X138.21 Y87.274 E13.51788
G1 X137.787 Y87.371 E13.53411
G1 X137.343 Y87.371 E13.55073
G1 X136.92 Y87.274 E13.56697
G1 X136.517 Y87.08 E13.5837
G1 X136.171 Y86.804 E13.60026
G1 X135.901 Y86.466 E13.61645
G1 X135.706 Y86.061 E13.63327
G1 X135.609 Y85.637 E13.64954
G1 X135.609 Y85.193 E13.66616
G1 X135.706 Y84.77 E13.6824
G1 X135.899 Y84.369 E13.69905
G0 F3000 X136.284 Y84.607
G1 F1500 X136.494 Y84.344 E13.71164
G1 X136.759 Y84.132 E13.72434
G1 X137.066 Y83.985 E13.73708
G1 X137.395 Y83.91 E13.7497
G1 X137.735 Y83.91 E13.76242
G1 X138.064 Y83.985 E13.77505
G1 X138.371 Y84.132 E13.78779
G1 X138.636 Y84.344 E13.80048
G1 X138.848 Y84.609 E13.81318
G1 X138.995 Y84.916 E13.82592
G1 X139.07 Y85.245 E13.83854
G1 X139.07 Y85.585 E13.85127
G1 X138.994 Y85.919 E13.86408
G1 X138.846 Y86.225 E13.8768
G1 X138.642 Y86.481 E13.88905
G1 X138.372 Y86.696 E13.90197
G1 X138.06 Y86.846 E13.91492
G1 X137.734 Y86.921 E13.92744
G1 X137.396 Y86.921 E13.94008
G1 X137.07 Y86.846 E13.9526
G1 X136.758 Y86.696 E13.96555
G1 X136.488 Y86.481 E13.97847
G1 X136.284 Y86.225 E13.99072
G1 X136.134 Y85.914 E14.00364
G1 X136.059 Y85.586 E14.01623
G1 X136.059 Y85.246 E14.02895
G1 X136.134 Y84.92 E14.04146
G1 X136.284 Y84.607 E14.05445
G0 F3000 X136.668 Y84.846
G1 F1500 X136.814 Y84.664 E14.06318
G1 X136.997 Y84.518 E14.07194
G1 X137.216 Y84.412 E14.08105
G1 X137.447 Y84.36 E14.0899
G1 X137.683 Y84.36 E14.09874
G1 X137.914 Y84.412 E14.1076
G1 X138.133 Y84.518 E14.1167
G1 X138.316 Y84.664 E14.12546
G1 X138.462 Y84.847 E14.13422
G1 X138.568 Y85.066 E14.14332
G1 X138.62 Y85.297 E14.15218
G1 X138.62 Y85.533 E14.16101
G1 X138.566 Y85.772 E14.17018
G1 X138.465 Y85.98 E14.17883
G1 X138.319 Y86.163 E14.18759
G1 X138.131 Y86.313 E14.19659
G1 X137.911 Y86.419 E14.20573
G1 X137.685 Y86.471 E14.21441
G1 X137.445 Y86.471 E14.22339
G1 X137.219 Y86.419 E14.23206
G1 X136.999 Y86.313 E14.2412
G1 X136.811 Y86.163 E14.2502
G1 X136.666 Y85.982 E14.25888
G1 X136.562 Y85.766 E14.26785
G1 X136.509 Y85.534 E14.27675
G1 X136.509 Y85.295 E14.2857
G1 X136.561 Y85.071 E14.2943
G1 X136.668 Y84.846 E14.30362
G0 F3000 X137.051 Y85.088
G1 F1500 X137.134 Y84.984 E14.3086
G1 X137.241 Y84.899 E14.31372
G1 X137.362 Y84.841 E14.31874
G1 X137.498 Y84.81 E14.32396
G1 X137.632 Y84.81 E14.32897
G1 X137.768 Y84.841 E14.33419
G1 X137.889 Y84.899 E14.33921
G1 X137.996 Y84.984 E14.34432
G1 X138.081 Y85.091 E14.34944
G1 X138.139 Y85.212 E14.35446
G1 X138.17 Y85.348 E14.35968
G1 X138.17 Y85.481 E14.36465
G1 X138.138 Y85.62 E14.36999
G1 X138.079 Y85.743 E14.37509
G1 X138 Y85.843 E14.37986
G1 X137.891 Y85.929 E14.38506
G1 X137.763 Y85.991 E14.39038
G1 X137.632 Y86.021 E14.39541
G1 X137.498 Y86.021 E14.40042
G1 X137.367 Y85.991 E14.40545
G1 X137.239 Y85.929 E14.41077
G1 X137.13 Y85.843 E14.41597
G1 X137.051 Y85.743 E14.42074
G1 X136.989 Y85.616 E14.42602
G1 X136.959 Y85.482 E14.43116
G1 X136.959 Y85.348 E14.43618
G1 X136.989 Y85.218 E14.44117
G1 X137.051 Y85.088 E14.44656
G0 F3000 X137.434 Y85.33
G1 F1500 X137.454 Y85.304 E14.44779
G1 X137.48 Y85.284 E14.44901
G1 X137.513 Y85.268 E14.45038
G1 X137.549 Y85.26 E14.45176
G1 X137.581 Y85.26 E14.45296
G1 X137.617 Y85.268 E14.45434
G1 X137.65 Y85.284 E14.45571
G1 X137.676 Y85.304 E14.45694
G1 X137.696 Y85.33 E14.45817
G1 X137.712 Y85.363 E14.45954
G1 X137.72 Y85.399 E14.46092
G1 X137.72 Y85.434 E14.46223
G1 X137.712 Y85.47 E14.46361
G1 X137.698 Y85.499 E14.46482
G1 X137.679 Y85.522 E14.46593
G1 X137.65 Y85.545 E14.46732
G1 X137.609 Y85.565 E14.46902
G1 X137.583 Y85.571 E14.47002
G1 X137.547 Y85.571 E14.47137
G1 X137.521 Y85.565 E14.47237
G1 X137.48 Y85.545 E14.47407
G1 X137.451 Y85.522 E14.47546
G1 X137.432 Y85.499 E14.47658
G1 X137.416 Y85.465 E14.47798
G1 X137.409 Y85.435 E14.47913
G1 X137.409 Y85.397 E14.48056
G1 X137.416 Y85.368 E14.48167
G1 X137.434 Y85.33 E14.48325
G1 F2100 E8.48325
G0 F3000 X168.25 Y115.827
G1 F2100 E14.48325
G1 F1500 X168.596 Y115.552 E14.49978
G1 X168.996 Y115.359 E14.5164
G1 X169.419 Y115.263 E14.53263
G1 X169.864 Y115.263 E14.54928
G1 X170.287 Y115.36 E14.56552
G1 X170.689 Y115.553 E14.58221
G1 X171.033 Y115.827 E14.59866
G1 X171.307 Y116.172 E14.61515
G1 X171.501 Y116.573 E14.63182
G1 X171.597 Y116.996 E14.64805
G1 X171.597 Y117.442 E14.66473
G1 X171.501 Y117.864 E14.68093
G1 X171.308 Y118.264 E14.69755
G1 X171.033 Y118.61 E14.71408
G1 X170.687 Y118.885 E14.73062
G1 X170.29 Y119.076 E14.74711
G1 X169.862 Y119.174 E14.76354
G1 X169.421 Y119.174 E14.78004
G1 X168.995 Y119.076 E14.79639
G1 X168.59 Y118.882 E14.8132
G1 X168.249 Y118.611 E14.82949
G1 X167.978 Y118.27 E14.84579
G1 X167.784 Y117.865 E14.86259
G1 X167.686 Y117.439 E14.87895
G1 X167.686 Y116.999 E14.89541
G1 X167.783 Y116.572 E14.9118
G1 X167.976 Y116.172 E14.92842
G1 X168.25 Y115.827 E14.9449
G0 F3000 X168.57 Y116.147
G1 F1500 X168.836 Y115.936 E14.95761
G1 X169.145 Y115.786 E14.97046
G1 X169.469 Y115.713 E14.98289
G1 X169.812 Y115.713 E14.99572
G1 X170.14 Y115.788 E15.00831
G1 X170.447 Y115.936 E15.02106
G1 X170.713 Y116.147 E15.03377
G1 X170.923 Y116.412 E15.04642
G1 X171.074 Y116.722 E15.05932
G1 X171.147 Y117.047 E15.07178
G1 X171.147 Y117.391 E15.08466
G1 X171.074 Y117.715 E15.09708
G1 X170.924 Y118.024 E15.10994
G1 X170.713 Y118.29 E15.12264
G1 X170.446 Y118.502 E15.1354
G1 X170.144 Y118.647 E15.14793
G1 X169.809 Y118.724 E15.16079
G1 X169.474 Y118.724 E15.17333
G1 X169.141 Y118.648 E15.18611
G1 X168.835 Y118.501 E15.19881
G1 X168.57 Y118.29 E15.21149
G1 X168.359 Y118.025 E15.22416
G1 X168.212 Y117.719 E15.23686
G1 X168.136 Y117.386 E15.24964
G1 X168.136 Y117.049 E15.26225
G1 X168.21 Y116.721 E15.27484
G1 X168.36 Y116.412 E15.28769
G1 X168.57 Y116.147 E15.30034
G0 F3000 X168.889 Y116.469
G1 F1500 X169.08 Y116.317 E15.30947
G1 X169.292 Y116.214 E15.31829
G1 X169.519 Y116.163 E15.327
G1 X169.76 Y116.163 E15.33602
G1 X169.995 Y116.217 E15.34504
G1 X170.205 Y116.318 E15.35376
G1 X170.393 Y116.467 E15.36273
G1 X170.54 Y116.652 E15.37157
G1 X170.646 Y116.871 E15.38068
G1 X170.697 Y117.097 E15.38935
G1 X170.697 Y117.341 E15.39848
G1 X170.646 Y117.568 E15.40718
G1 X170.543 Y117.78 E15.416
G1 X170.391 Y117.971 E15.42514
G1 X170.207 Y118.117 E15.43392
G1 X169.994 Y118.22 E15.44278
G1 X169.757 Y118.274 E15.45187
G1 X169.526 Y118.274 E15.46052
G1 X169.291 Y118.22 E15.46954
G1 X169.07 Y118.114 E15.47871
G1 X168.889 Y117.971 E15.48734
G1 X168.746 Y117.79 E15.49597
G1 X168.64 Y117.569 E15.50514
G1 X168.586 Y117.334 E15.51417
G1 X168.586 Y117.1 E15.52292
G1 X168.639 Y116.867 E15.53186
G1 X168.742 Y116.653 E15.54075
G1 X168.889 Y116.469 E15.54956
G0 F3000 X169.212 Y116.787
G1 F1500 X169.32 Y116.7 E15.55475
G1 X169.44 Y116.642 E15.55974
G1 X169.571 Y116.613 E15.56476
G1 X169.712 Y116.613 E15.57003
G1 X169.838 Y116.642 E15.57487
G1 X169.965 Y116.703 E15.58014
G1 X170.072 Y116.788 E15.58526
G1 X170.158 Y116.896 E15.59042
G1 X170.218 Y117.021 E15.59561
G1 X170.247 Y117.147 E15.60045
G1 X170.247 Y117.289 E15.60576
G1 X170.218 Y117.42 E15.61078
G1 X170.16 Y117.54 E15.61577
G1 X170.073 Y117.648 E15.62096
G1 X169.963 Y117.736 E15.62623
G1 X169.844 Y117.793 E15.63117
G1 X169.709 Y117.824 E15.63635
G1 X169.574 Y117.824 E15.6414
G1 X169.441 Y117.793 E15.64651
G1 X169.315 Y117.733 E15.65173
G1 X169.21 Y117.65 E15.65674
G1 X169.127 Y117.545 E15.66175
G1 X169.067 Y117.419 E15.66697
G1 X169.036 Y117.286 E15.67208
G1 X169.036 Y117.151 E15.67713
G1 X169.066 Y117.017 E15.68227
G1 X169.124 Y116.897 E15.68726
G1 X169.212 Y116.787 E15.69253
G0 F3000 X169.532 Y117.107
G1 F1500 X169.561 Y117.084 E15.69391
G1 X169.59 Y117.07 E15.69512
G1 X169.621 Y117.063 E15.69631
G1 X169.66 Y117.063 E15.69777
G1 X169.692 Y117.07 E15.69899
G1 X169.724 Y117.086 E15.70033
G1 X169.752 Y117.108 E15.70166
G1 X169.774 Y117.136 E15.703
G1 X169.791 Y117.17 E15.70442
G1 X169.797 Y117.198 E15.70549
G1 X169.797 Y117.239 E15.70702
G1 X169.79 Y117.27 E15.70821
G1 X169.776 Y117.299 E15.70942
G1 X169.753 Y117.328 E15.7108
G1 X169.725 Y117.351 E15.71216
G1 X169.694 Y117.365 E15.71343
G1 X169.657 Y117.374 E15.71486
G1 X169.626 Y117.374 E15.71602
G1 X169.591 Y117.366 E15.71736
G1 X169.553 Y117.347 E15.71895
G1 X169.53 Y117.33 E15.72002
G1 X169.513 Y117.307 E15.72109
G1 X169.494 Y117.269 E15.72268
G1 X169.486 Y117.234 E15.72402
G1 X169.486 Y117.202 E15.72522
G1 X169.494 Y117.165 E15.72664
G1 X169.508 Y117.137 E15.72781
G1 X169.532 Y117.107 E15.72925
G1 F2100 E9.72925
G0 F3000 X125.458 Y161.402
G1 F2100 E15.72925
G1 F1500 X125.732 Y161.745 E15.74567
G1 X125.925 Y162.147 E15.76236
G1 X126.022 Y162.573 E15.77871
G1 X126.022 Y163.013 E15.79517
G1 X125.925 Y163.439 E15.81152
G1 X125.732 Y163.841 E15.8282
G1 X125.458 Y164.184 E15.84463
G1 X125.113 Y164.459 E15.86114
G1 X124.712 Y164.652 E15.87779
G1 X124.289 Y164.749 E15.89403
G1 X123.845 Y164.749 E15.91064
G1 X123.422 Y164.652 E15.92688
G1 X123.021 Y164.459 E15.94353
G1 X122.676 Y164.184 E15.96004
G1 X122.401 Y163.839 E15.97655
G1 X122.208 Y163.438 E15.9932
G1 X122.111 Y163.015 E16.00944
G1 X122.111 Y162.571 E16.02605
G1 X122.208 Y162.148 E16.04229
G1 X122.401 Y161.747 E16.05894
