;FLAVOR:Marlin
;TIME:626
;Filament used: 0m, 0.833586m
;Layer height: 0.32
;MINX:106.367
;MINY:106.386
;MINZ:0.32
;MAXX:148.627
;MAXY:148.624
;MAXZ:4.8
;TARGET_MACHINE.NAME:Geeetech MizarM
;Generated with Cura_SteamEngine 5.6.0
T1
M82 ;absolute extrusion mode
;Official open-source firmware for MizarM: https://github.com/Geeetech3D/Mizar-M 

M104 S205 ; Set Hotend Temperature
M190 S55 ; Wait for Bed Temperature
M109 S205 ; Wait for Hotend Temperature
G92 E0 ; Reset Extruder
G28 ; Home all axes
M107 P0 ;Off Main Fan
M107 P1 ;Off Aux Fan
M2012 P8 S1 F100 ; ON Light
;M106 P0 S383 ; ON MainFan 150% if need
;M106 P1 S255 ; ON Aux Fan 100% if need
G1 Z5.0 F3000 ;Move Z Axis up little to prevent scratching of Heat Bed
G1 X0.1 Y20 Z0.8 F5000 ; Move to start position
G1 X0.1 Y200.0 Z1.2 F1500 E30 ; Draw the first line
G92 E0 ; Reset Extruder
G1 X0.4 Y200.0 Z1.2 F3000 ; Move to side a little
G1 X0.4 Y20 Z1.2 F1500 E25 ; Draw the second line
G92 E0 ; Reset Extruder
G1 Z2.0 F3000 ; Move Z Axis up little to prevent scratching of Heat Bed
G1 X5 Y20 Z0.4 F3000.0 ; Scrape off nozzle residue
G92 E0
G92 E0
G1 F2100 E-6
;LAYER_COUNT:15
;LAYER:0
M107
M104 T0 S175
G0 F3000 X111.484 Y113.802 Z0.32
;TYPE:SKIRT
G1 F2100 E0
G1 F1500 X113.249 Y112.117 E0.14609
G1 X114.392 Y110.998 E0.24185
G1 X114.96 Y110.504 E0.28692
G1 X115.634 Y110.028 E0.33632
G1 X116.479 Y109.533 E0.39495
G1 X118.652 Y108.467 E0.53985
G1 X118.779 Y108.413 E0.54811
G1 X119.854 Y107.881 E0.61992
G1 X120.406 Y107.639 E0.65601
G1 X120.998 Y107.412 E0.69396
G1 X121.717 Y107.185 E0.7391
G1 X122.375 Y107.052 E0.77929
G1 X123.071 Y106.947 E0.82143
G1 X124.381 Y106.724 E0.90099
G1 X124.57 Y106.703 E0.91237
G1 X125.839 Y106.499 E0.98932
G1 X126.454 Y106.431 E1.02637
G1 X127.077 Y106.392 E1.06374
G1 X127.925 Y106.386 E1.11451
G1 X129.677 Y106.606 E1.22022
G1 X131.904 Y106.868 E1.35447
G1 X132.643 Y107 E1.39941
G1 X133.443 Y107.227 E1.44919
G1 X134.175 Y107.494 E1.49584
G1 X134.764 Y107.75 E1.53429
G1 X136.071 Y108.342 E1.62019
G1 X137.761 Y109.071 E1.73038
G1 X138.392 Y109.386 E1.7726
G1 X138.91 Y109.713 E1.80928
G1 X139.423 Y110.071 E1.84673
G1 X140.024 Y110.547 E1.89263
G1 X141.99 Y112.297 E2.0502
G1 X142.901 Y113.083 E2.12224
G1 X143.591 Y113.777 E2.18083
G1 X143.969 Y114.22 E2.21569
G1 X144.512 Y114.94 E2.26968
G1 X145.156 Y116.066 E2.34734
G1 X145.819 Y117.17 E2.42444
G1 X145.916 Y117.354 E2.43689
G1 X146.597 Y118.5 E2.5167
G1 X147.096 Y119.487 E2.58291
G1 X147.45 Y120.461 E2.64495
G1 X148.12 Y123.302 E2.8197
G1 X148.411 Y124.463 E2.89136
G1 X148.543 Y125.156 E2.9336
G1 X148.622 Y126.045 E2.98703
G1 X148.627 Y126.864 E3.03606
G1 X148.575 Y127.77 E3.09039
G1 X148.451 Y130.4 E3.24802
G1 X148.303 Y131.584 E3.31946
G1 X147.968 Y132.784 E3.39404
G1 X147.572 Y133.877 E3.46364
G1 X147.193 Y134.992 E3.53415
G1 X147.109 Y135.201 E3.54763
G1 X146.698 Y136.381 E3.62244
G1 X146.149 Y137.603 E3.70264
G1 X145.518 Y138.579 E3.77222
G1 X144.959 Y139.325 E3.82803
G1 X144.234 Y140.267 E3.8992
G1 X143.157 Y141.733 E4.0081
G1 X142.589 Y142.414 E4.06119
G1 X141.939 Y143.022 E4.11448
G1 X141.278 Y143.561 E4.16554
G1 X140.787 Y143.909 E4.20157
G1 X139.426 Y144.84 E4.30029
G1 X137.962 Y145.889 E4.40811
G1 X137.367 Y146.267 E4.45032
G1 X136.762 Y146.568 E4.49077
G1 X136.214 Y146.807 E4.52656
G1 X135.583 Y147.044 E4.56692
G1 X134.726 Y147.315 E4.62073
G1 X133.715 Y147.619 E4.68393
G1 X132.151 Y148.127 E4.78238
G1 X131.475 Y148.307 E4.82426
G1 X130.967 Y148.413 E4.85533
G1 X130.041 Y148.547 E4.91135
G1 X128.64 Y148.567 E4.99523
G1 X127.572 Y148.596 E5.05919
G1 X127.421 Y148.591 E5.06824
G1 X126.205 Y148.624 E5.14106
G1 X124.937 Y148.556 E5.21709
G1 X123.827 Y148.336 E5.28483
G1 X122.402 Y147.95 E5.37322
G1 X121.163 Y147.601 E5.45028
G1 X120.223 Y147.359 E5.50839
G1 X119.507 Y147.128 E5.55344
G1 X118.654 Y146.75 E5.60929
G1 X117.833 Y146.298 E5.6654
G1 X116.005 Y145.112 E5.79586
G1 X115.318 Y144.693 E5.84403
G1 X114.516 Y144.18 E5.90103
G1 X113.824 Y143.669 E5.95253
G1 X113.385 Y143.297 E5.98698
G1 X112.73 Y142.672 E6.04118
G1 X111.578 Y141.24 E6.15121
G1 X109.956 Y139.272 E6.30389
G1 X109.246 Y138.247 E6.37854
G1 X108.734 Y137.203 E6.44815
G1 X108.341 Y136.222 E6.51142
G1 X108.01 Y135.361 E6.56664
G1 X107.287 Y133.599 E6.68067
G1 X106.929 Y132.507 E6.74947
G1 X106.717 Y131.261 E6.82514
G1 X106.493 Y128.694 E6.9794
G1 X106.39 Y127.656 E7.04185
G1 X106.367 Y126.442 E7.11454
G1 X106.523 Y125.249 E7.18657
G1 X106.686 Y124.456 E7.23504
G1 X107.206 Y121.74 E7.4006
G1 X107.516 Y120.58 E7.47248
G1 X108.024 Y119.406 E7.54906
G1 X108.575 Y118.376 E7.619
G1 X108.952 Y117.698 E7.66544
G1 X109.59 Y116.469 E7.74834
G1 X109.948 Y115.806 E7.79345
G1 X110.677 Y114.695 E7.87301
G1 X111.484 Y113.802 E7.94506
G0 F3000 X111.795 Y114.127
G1 F1500 X113.56 Y112.442 E8.09115
G1 X114.688 Y111.337 E8.18569
G1 X115.22 Y110.872 E8.22799
G1 X115.894 Y110.396 E8.27739
G1 X116.677 Y109.937 E8.33173
G1 X118.85 Y108.871 E8.47663
G1 X118.973 Y108.819 E8.48463
G1 X120.035 Y108.293 E8.55558
G1 X120.567 Y108.059 E8.59037
G1 X121.135 Y107.841 E8.6268
G1 X121.807 Y107.626 E8.66904
G1 X122.442 Y107.497 E8.70783
G1 X123.147 Y107.391 E8.75051
G1 X124.457 Y107.168 E8.83007
G1 X124.625 Y107.149 E8.84019
G1 X125.889 Y106.946 E8.91683
G1 X126.483 Y106.88 E8.95261
G1 X127.08 Y106.842 E8.98843
G1 X127.928 Y106.836 E9.0392
G1 X129.625 Y107.053 E9.14162
G1 X131.826 Y107.311 E9.27429
G1 X132.521 Y107.433 E9.31654
G1 X133.289 Y107.65 E9.36432
G1 X133.996 Y107.907 E9.40935
G1 X134.578 Y108.16 E9.44735
G1 X135.885 Y108.752 E9.53325
G1 X137.56 Y109.474 E9.64244
G1 X138.191 Y109.789 E9.68467
G1 X138.653 Y110.082 E9.71742
G1 X139.144 Y110.424 E9.75324
G1 X139.725 Y110.883 E9.79757
G1 X141.696 Y112.638 E9.95557
G1 X142.582 Y113.401 E10.02557
G1 X143.249 Y114.07 E10.08213
G1 X143.611 Y114.493 E10.11546
G1 X144.121 Y115.163 E10.16587
G1 X144.77 Y116.298 E10.24414
G1 X145.433 Y117.402 E10.32124
G1 X145.529 Y117.584 E10.33356
G1 X146.21 Y118.73 E10.41337
G1 X146.673 Y119.641 E10.47455
G1 X147.027 Y120.615 E10.53659
G1 X147.684 Y123.412 E10.7086
G1 X147.969 Y124.547 E10.77866
G1 X148.101 Y125.24 E10.8209
G1 X148.172 Y126.048 E10.86946
G1 X148.177 Y126.867 E10.91849
G1 X148.125 Y127.749 E10.97138
G1 X148.004 Y130.344 E11.12691
G1 X147.856 Y131.528 E11.19835
G1 X147.545 Y132.631 E11.26696
G1 X147.149 Y133.724 E11.33655
G1 X146.775 Y134.824 E11.40611
G1 X146.691 Y135.033 E11.4196
G1 X146.287 Y136.198 E11.49342
G1 X145.771 Y137.359 E11.56948
G1 X145.158 Y138.309 E11.63717
G1 X144.602 Y139.051 E11.69268
G1 X143.877 Y139.993 E11.76384
G1 X142.81 Y141.446 E11.87177
G1 X142.281 Y142.086 E11.92148
G1 X141.655 Y142.673 E11.97285
G1 X140.994 Y143.212 E12.02392
G1 X140.533 Y143.538 E12.05772
G1 X139.164 Y144.474 E12.157
G1 X137.721 Y145.509 E12.26332
G1 X137.126 Y145.887 E12.30552
G1 X136.582 Y146.156 E12.34185
G1 X136.055 Y146.386 E12.37628
G1 X135.447 Y146.615 E12.41517
G1 X134.596 Y146.884 E12.46861
G1 X133.585 Y147.188 E12.53181
G1 X132.035 Y147.692 E12.62939
G1 X131.383 Y147.866 E12.66979
G1 X130.875 Y147.972 E12.70086
G1 X130.035 Y148.097 E12.7517
G1 X128.627 Y148.117 E12.836
G1 X127.586 Y148.146 E12.89835
G1 X127.423 Y148.141 E12.90811
G1 X126.193 Y148.174 E12.98178
G1 X125.024 Y148.115 E13.05185
G1 X123.945 Y147.902 E13.1177
G1 X122.524 Y147.517 E13.20584
G1 X121.275 Y147.165 E13.28352
G1 X120.36 Y146.93 E13.34008
G1 X119.688 Y146.716 E13.3823
G1 X118.871 Y146.356 E13.43575
G1 X118.078 Y145.92 E13.48993
G1 X116.25 Y144.735 E13.62036
G1 X115.56 Y144.314 E13.66875
G1 X114.783 Y143.818 E13.72393
G1 X114.114 Y143.325 E13.77369
G1 X113.694 Y142.97 E13.80661
G1 X113.081 Y142.39 E13.85713
G1 X111.929 Y140.958 E13.96716
G1 X110.325 Y139.014 E14.11805
G1 X109.65 Y138.048 E14.1886
G1 X109.152 Y137.036 E14.25613
G1 X108.761 Y136.061 E14.31902
G1 X108.43 Y135.2 E14.37424
G1 X107.715 Y133.459 E14.48692
G1 X107.357 Y132.367 E14.55572
G1 X107.161 Y131.187 E14.62733
G1 X106.941 Y128.649 E14.77985
G1 X106.84 Y127.647 E14.84014
G1 X106.817 Y126.433 E14.91283
G1 X106.964 Y125.34 E14.97886
G1 X107.127 Y124.547 E15.02732
G1 X107.648 Y121.825 E15.19324
G1 X107.929 Y120.758 E15.2593
G1 X108.421 Y119.618 E15.33364
G1 X108.969 Y118.594 E15.40317
G1 X109.345 Y117.916 E15.44958
G1 X109.986 Y116.682 E15.53283
G1 X110.325 Y116.051 E15.57572
G1 X111.011 Y114.996 E15.65106
G1 X111.795 Y114.127 E15.72112
G1 F2100 E9.72112
;MESH:Cutter-Grande_roue_V2.stl
G0 F3000 X115.088 Y119.019
G0 X116.174 Y119.418
G0 X117.366 Y121.02
G0 X120.607 Y131.527
G0 X127.789 Y135.898
G0 X127.647 Y135.651
;TYPE:WALL-INNER
G1 F2100 E15.72112
G1 F1500 X127.413 Y135.656 E15.73514
G1 X127.221 Y135.596 E15.74718
G1 X120.653 Y131.804 E16.20122
G1 X120.494 Y131.622 E16.21569
G1 X120.391 Y131.374 E16.23177
G1 X120.395 Y123.735 E16.6891
G1 X120.469 Y123.498 E16.70397
G1 X120.689 Y123.255 E16.72359
G1 X127.244 Y119.467 E17.17684
G1 X127.575 Y119.417 E17.19688
G1 X127.797 Y119.475 E17.21062
G1 X134.362 Y123.269 E17.66457
G1 X134.48 Y123.376 E17.67411
G1 X134.599 Y123.577 E17.68809
G1 X134.642 Y123.751 E17.69882
G1 X134.64 Y131.378 E18.15543
G1 X134.539 Y131.619 E18.17108
G1 X134.401 Y131.791 E18.18428
G1 X127.794 Y135.604 E18.64098
G1 X127.647 Y135.651 E18.65022
G0 F3000 X127.789 Y135.898
G0 X126.38 Y139.453
G0 X126.666 Y139.562
G1 F1500 X126.792 Y139.461 E18.65988
G1 X127.068 Y139.36 E18.67748
G1 X128.428 Y139.336 E18.75891
G1 X128.702 Y139.421 E18.77609
G1 X128.836 Y139.519 E18.78603
G1 X128.986 Y139.731 E18.80157
G1 X129.644 Y141.19 E18.89739
G1 X129.763 Y141.164 E18.90469
G1 X129.88 Y140.361 E18.95327
G1 X129.954 Y139.575 E19.00053
G1 X130.03 Y139.327 E19.01606
G1 X130.126 Y139.192 E19.02598
G1 X130.328 Y139.03 E19.04148
G1 X131.105 Y138.804 E19.08993
G1 X131.796 Y138.566 E19.13368
G1 X132.184 Y138.634 E19.15726
G1 X132.394 Y138.788 E19.17285
G1 X133.496 Y139.986 E19.2703
G1 X133.703 Y139.897 E19.28379
G1 X133.599 Y139.17 E19.32776
G1 X133.437 Y138.277 E19.3821
G1 X133.444 Y138.015 E19.39779
G1 X133.498 Y137.861 E19.40756
G1 X133.669 Y137.645 E19.42405
G1 X134.914 Y136.773 E19.51505
G1 X135.194 Y136.685 E19.53262
G1 X135.352 Y136.69 E19.54209
G1 X135.579 Y136.766 E19.55642
G1 X137.016 Y137.56 E19.65471
G1 X137.216 Y137.383 E19.6707
G1 X136.868 Y136.662 E19.71863
G1 X136.465 Y135.91 E19.76971
G1 X136.396 Y135.68 E19.78408
G1 X136.442 Y135.31 E19.8064
G1 X137.417 Y134.012 E19.90359
G1 X137.681 Y133.845 E19.9223
G1 X138.04 Y133.818 E19.94385
G1 X139.647 Y134.132 E20.04188
G1 X139.763 Y133.927 E20.05598
G1 X139.218 Y133.365 E20.10285
G1 X138.594 Y132.777 E20.15418
G1 X138.418 Y132.465 E20.17562
G1 X138.398 Y132.295 E20.18587
G1 X138.435 Y132.076 E20.19917
G1 X138.918 Y130.704 E20.28625
G1 X139.195 Y130.44 E20.30916
G1 X139.456 Y130.361 E20.32548
G1 X141.063 Y130.213 E20.4221
G1 X141.096 Y130.082 E20.43019
G1 X140.514 Y129.778 E20.4695
G1 X139.648 Y129.368 E20.52686
G1 X139.436 Y129.198 E20.54313
G1 X139.347 Y129.058 E20.55306
G1 X139.282 Y128.767 E20.57091
G1 X139.326 Y128.115 E20.61003
G1 X139.344 Y127.406 E20.65249
G1 X139.535 Y127.064 E20.67594
G1 X139.783 Y126.904 E20.69361
G1 X141.278 Y126.358 E20.7889
G1 X141.275 Y126.274 E20.79393
G1 X140.441 Y126.105 E20.84488
G1 X139.7 Y125.982 E20.88985
G1 X139.428 Y125.869 E20.90748
G1 X139.182 Y125.571 E20.93061
G1 X138.853 Y124.161 E21.0173
G1 X138.852 Y123.927 E21.0313
G1 X138.945 Y123.686 E21.04677
G1 X139.102 Y123.511 E21.06085
G1 X140.387 Y122.51 E21.15836
G1 X140.302 Y122.322 E21.17072
G1 X139.53 Y122.373 E21.21703
G1 X138.685 Y122.466 E21.26793
G1 X138.45 Y122.447 E21.28204
G1 X138.216 Y122.337 E21.29752
G1 X138.074 Y122.201 E21.30929
G1 X137.295 Y120.875 E21.40137
G1 X137.236 Y120.58 E21.41938
G1 X137.256 Y120.428 E21.42855
G1 X137.347 Y120.223 E21.44198
G1 X138.26 Y118.846 E21.5409
G1 X138.084 Y118.649 E21.55671
G1 X137.347 Y118.937 E21.60408
G1 X136.568 Y119.277 E21.65497
G1 X136.195 Y119.319 E21.67744
G1 X135.93 Y119.223 E21.69432
G1 X135.307 Y118.646 E21.74515
G1 X134.708 Y118.147 E21.79183
G1 X134.578 Y117.793 E21.8144
G1 X134.599 Y117.538 E21.82972
G1 X135.037 Y115.959 E21.92782
G1 X134.828 Y115.816 E21.94298
G1 X134.223 Y116.317 E21.99001
G1 X133.585 Y116.893 E22.04147
G1 X133.364 Y117.019 E22.0567
G1 X133.207 Y117.052 E22.06631
G1 X132.914 Y117.014 E22.08399
G1 X131.56 Y116.418 E22.17256
G1 X131.36 Y116.242 E22.18851
G1 X131.278 Y116.101 E22.19828
G1 X131.223 Y115.849 E22.21372
G1 X131.185 Y114.217 E22.31145
G1 X131.02 Y114.182 E22.32155
G1 X130.646 Y114.777 E22.36362
G1 X130.196 Y115.571 E22.41826
G1 X130.021 Y115.761 E22.43373
G1 X129.666 Y115.906 E22.45668
G1 X128.821 Y115.784 E22.5078
G1 X128.227 Y115.734 E22.54348
G1 X128.037 Y115.657 E22.55576
G1 X127.835 Y115.482 E22.57176
G1 X127.72 Y115.257 E22.58689
G1 X127.28 Y113.742 E22.68133
G1 X127.215 Y113.743 E22.68523
G1 X127.034 Y114.397 E22.72585
G1 X126.829 Y115.274 E22.77977
G1 X126.723 Y115.504 E22.79493
G1 X126.426 Y115.755 E22.81821
G1 X124.9 Y116.001 E22.91075
G1 X124.53 Y115.874 E22.93417
G1 X124.346 Y115.687 E22.94988
G1 X123.452 Y114.331 E23.04711
G1 X123.283 Y114.394 E23.05791
G1 X123.28 Y115.168 E23.10425
G1 X123.311 Y116.012 E23.15481
G1 X123.267 Y116.272 E23.1706
G1 X123.19 Y116.417 E23.18043
G1 X122.974 Y116.615 E23.19797
G1 X122.313 Y116.92 E23.24155
G1 X121.59 Y117.298 E23.2904
G1 X121.21 Y117.282 E23.31317
G1 X120.985 Y117.166 E23.32832
G1 X119.698 Y116.155 E23.4263
G1 X119.482 Y116.293 E23.44165
G1 X119.711 Y117.055 E23.48929
G1 X119.993 Y117.861 E23.54041
G1 X120.026 Y118.114 E23.55568
G1 X119.915 Y118.467 E23.57784
G1 X118.723 Y119.624 E23.67729
G1 X118.471 Y119.718 E23.69339
G1 X118.108 Y119.692 E23.71518
G1 X116.56 Y119.137 E23.81363
G1 X116.4 Y119.335 E23.82887
G1 X116.788 Y119.898 E23.86981
G1 X117.372 Y120.669 E23.92771
G1 X117.468 Y120.862 E23.94062
G1 X117.489 Y121.179 E23.95964
G1 X117.42 Y121.381 E23.97242
G1 X116.73 Y122.667 E24.05979
G1 X116.528 Y122.858 E24.07643
G1 X116.384 Y122.924 E24.08591
G1 X116.143 Y122.956 E24.10047
G1 X114.509 Y122.881 E24.1984
G1 X114.453 Y123.066 E24.20997
G1 X115.065 Y123.519 E24.25555
G1 X115.776 Y124.002 E24.30701
G1 X115.943 Y124.176 E24.32145
G1 X116.014 Y124.318 E24.33096
G1 X116.059 Y124.585 E24.34717
G1 X115.78 Y126.042 E24.43598
G1 X115.552 Y126.347 E24.45878
G1 X115.285 Y126.473 E24.47645
G1 X113.723 Y126.826 E24.57233
G1 X113.717 Y126.892 E24.57629
G1 X114.34 Y127.106 E24.61573
G1 X115.24 Y127.378 E24.67202
G1 X115.493 Y127.53 E24.68969
G1 X115.693 Y127.864 E24.71299
G1 X115.742 Y128.617 E24.75817
G1 X115.811 Y129.262 E24.79701
G1 X115.788 Y129.441 E24.80781
G1 X115.667 Y129.68 E24.82385
G1 X115.462 Y129.855 E24.83999
G1 X114.049 Y130.632 E24.93653
G1 X114.092 Y130.775 E24.94547
G1 X114.95 Y130.838 E24.99697
G1 X115.7 Y130.862 E25.04189
G1 X115.962 Y130.926 E25.05804
G1 X116.257 Y131.18 E25.08135
G1 X116.83 Y132.615 E25.17385
G1 X116.835 Y132.935 E25.19301
G1 X116.67 Y133.254 E25.21452
G1 X115.561 Y134.453 E25.31229
G1 X115.683 Y134.663 E25.32683
G1 X116.449 Y134.498 E25.37375
G1 X117.276 Y134.279 E25.42496
G1 X117.636 Y134.288 E25.44652
G1 X117.792 Y134.359 E25.45678
G1 X117.954 Y134.497 E25.46952
G1 X118.391 Y135.058 E25.5121
G1 X118.944 Y135.69 E25.56237
G1 X119.011 Y136.064 E25.58512
G1 X118.952 Y136.3 E25.59969
G1 X118.27 Y137.811 E25.69893
G1 X118.475 Y137.977 E25.71473
G1 X119.155 Y137.579 E25.7619
G1 X119.874 Y137.115 E25.81313
G1 X120.101 Y137.028 E25.82768
G1 X120.472 Y137.048 E25.84992
G1 X121.86 Y137.932 E25.94844
G1 X122.054 Y138.263 E25.97141
G1 X122.073 Y138.522 E25.98696
G1 X121.881 Y140.144 E26.08474
G1 X122.073 Y140.238 E26.09754
G1 X122.519 Y139.732 E26.13792
G1 X123.123 Y138.981 E26.19562
