;FLAVOR:Marlin
;TIME:827
;Filament used: 0m, 0.96954m
;Layer height: 0.21
;MINX:101.308
;MINY:107.78
;MINZ:0.2
;MAXX:153.69
;MAXY:147.23
;MAXZ:5.03
;TARGET_MACHINE.NAME:Geeetech MizarM
;Generated with Cura_SteamEngine 5.6.0
T1
M82 ;absolute extrusion mode
;Official open-source firmware for MizarM: https://github.com/Geeetech3D/Mizar-M 

M104 S205 ; Set Hotend Temperature
M190 S62.5 ; Wait for Bed Temperature
M109 S205 ; Wait for Hotend Temperature
G92 E0 ; Reset Extruder
G28 ; Home all axes
M107 P0 ;Off Main Fan
M107 P1 ;Off Aux Fan
M2012 P8 S1 F100 ; ON Light
;M106 P0 S383 ; ON MainFan 150% if need
;M106 P1 S255 ; ON Aux Fan 100% if need
G1 Z5.0 F3000 ;Move Z Axis up little to prevent scratching of Heat Bed
G1 X0.1 Y20 Z0.8 F5000 ; Move to start position
G1 X0.1 Y200.0 Z1.2 F1500 E30 ; Draw the first line
G92 E0 ; Reset Extruder
G1 X0.4 Y200.0 Z1.2 F3000 ; Move to side a little
G1 X0.4 Y20 Z1.2 F1500 E25 ; Draw the second line
G92 E0 ; Reset Extruder
G1 Z2.0 F3000 ; Move Z Axis up little to prevent scratching of Heat Bed
G1 X5 Y20 Z0.4 F3000.0 ; Scrape off nozzle residue
G92 E0
G92 E0
G1 F2100 E-6
;LAYER_COUNT:24
;LAYER:0
M107
M104 T0 S175
G0 F3000 X106.873 Y112.119 Z0.2
;TYPE:SKIRT
G1 F2100 E0
G1 F1500 X107.796 Y111.34 E0.04519
G1 X108.587 Y110.761 E0.08187
G1 X109.084 Y110.432 E0.10417
G1 X109.916 Y109.922 E0.14069
G1 X111.047 Y109.342 E0.18825
G1 X112.185 Y108.857 E0.23454
G1 X113.314 Y108.471 E0.27918
G1 X114.567 Y108.142 E0.32765
G1 X115.312 Y108.007 E0.35598
G1 X116.3 Y107.859 E0.39337
G1 X117.135 Y107.791 E0.42471
G1 X117.889 Y107.78 E0.45293
G1 X144.452 Y107.79 E1.44685
G1 X145.145 Y107.8 E1.47279
G1 X145.849 Y107.849 E1.49919
G1 X146.618 Y107.99 E1.52845
G1 X147.461 Y108.212 E1.56107
G1 X148.352 Y108.539 E1.59658
G1 X149.098 Y108.92 E1.62792
G1 X149.615 Y109.23 E1.65048
G1 X150.242 Y109.659 E1.6789
G1 X150.861 Y110.201 E1.70969
G1 X151.265 Y110.605 E1.73107
G1 X151.734 Y111.132 E1.75747
G1 X152.239 Y111.853 E1.7904
G1 X152.511 Y112.303 E1.81008
G1 X152.875 Y112.993 E1.83927
G1 X153.119 Y113.607 E1.86399
G1 X153.331 Y114.231 E1.88865
G1 X153.531 Y114.962 E1.91701
G1 X153.667 Y115.851 E1.95066
G1 X153.688 Y116.681 E1.98173
G1 X153.69 Y137.713 E2.76869
G1 X153.679 Y138.512 E2.79859
G1 X153.593 Y139.489 E2.83529
G1 X153.495 Y140.086 E2.85793
G1 X153.329 Y140.825 E2.88627
G1 X153.05 Y141.627 E2.91804
G1 X152.686 Y142.388 E2.94961
G1 X152.311 Y143.087 E2.97929
G1 X151.791 Y143.858 E3.01409
G1 X151.264 Y144.471 E3.04433
G1 X150.623 Y145.061 E3.07693
G1 X149.69 Y145.728 E3.11985
G1 X148.916 Y146.188 E3.15354
G1 X148.362 Y146.443 E3.17636
G1 X147.7 Y146.709 E3.20305
G1 X146.983 Y146.949 E3.23134
G1 X146.294 Y147.098 E3.25772
G1 X145.728 Y147.166 E3.27905
G1 X144.902 Y147.228 E3.31004
G1 X143.766 Y147.23 E3.35255
G1 X142.749 Y147.216 E3.39061
G1 X108.69 Y147.22 E4.66502
G1 X107.872 Y147.208 E4.69563
G1 X107.169 Y147.158 E4.722
G1 X106.375 Y147.01 E4.75222
G1 X105.653 Y146.786 E4.7805
G1 X105.006 Y146.504 E4.80691
G1 X104.308 Y146.1 E4.83709
G1 X103.741 Y145.68 E4.86349
G1 X103.15 Y145.129 E4.89373
G1 X102.663 Y144.552 E4.92198
G1 X102.268 Y143.967 E4.94839
G1 X101.896 Y143.25 E4.97862
G1 X101.628 Y142.543 E5.00691
G1 X101.451 Y141.86 E5.03331
G1 X101.321 Y140.73 E5.07587
G1 X101.308 Y140.195 E5.09589
G1 X101.314 Y125.362 E5.65091
G1 X101.338 Y124.016 E5.70128
G1 X101.394 Y123.022 E5.73853
G1 X101.561 Y121.771 E5.78576
G1 X101.764 Y120.772 E5.8239
G1 X102.021 Y119.858 E5.85943
G1 X102.278 Y119.059 E5.89083
G1 X102.547 Y118.319 E5.92029
G1 X102.915 Y117.501 E5.95386
G1 X103.507 Y116.321 E6.00325
G1 X104.053 Y115.447 E6.04181
G1 X104.626 Y114.618 E6.07952
G1 X105.106 Y113.98 E6.1094
G1 X105.977 Y112.99 E6.15874
G1 X106.873 Y112.119 E6.20549
G0 F3000 X107.187 Y112.442
G1 F1500 X108.086 Y111.684 E6.24949
G1 X108.836 Y111.136 E6.28425
G1 X109.319 Y110.816 E6.30593
G1 X110.151 Y110.306 E6.34244
G1 X111.224 Y109.756 E6.38756
G1 X112.331 Y109.283 E6.4326
G1 X113.46 Y108.897 E6.47725
G1 X114.647 Y108.585 E6.52317
G1 X115.379 Y108.452 E6.55101
G1 X116.337 Y108.308 E6.58726
G1 X117.172 Y108.24 E6.61861
G1 X117.889 Y108.23 E6.64544
G1 X144.446 Y108.24 E7.63914
G1 X145.114 Y108.249 E7.66413
G1 X145.818 Y108.298 E7.69054
G1 X146.504 Y108.425 E7.71665
G1 X147.307 Y108.635 E7.7477
G1 X148.147 Y108.94 E7.78114
G1 X148.893 Y109.321 E7.81248
G1 X149.362 Y109.602 E7.83294
G1 X149.946 Y109.998 E7.85934
G1 X150.565 Y110.54 E7.89013
G1 X150.929 Y110.904 E7.90939
G1 X151.398 Y111.431 E7.93579
G1 X151.854 Y112.086 E7.96565
G1 X152.126 Y112.536 E7.98533
G1 X152.457 Y113.159 E8.01172
G1 X152.693 Y113.752 E8.0356
G1 X152.897 Y114.352 E8.05932
G1 X153.086 Y115.032 E8.08573
G1 X153.217 Y115.863 E8.1172
G1 X153.238 Y116.681 E8.14782
G1 X153.24 Y137.707 E8.93456
G1 X153.229 Y138.506 E8.96446
G1 X153.149 Y139.417 E8.99868
G1 X153.056 Y139.989 E9.02037
G1 X152.904 Y140.678 E9.04677
G1 X152.644 Y141.433 E9.07665
G1 X152.289 Y142.175 E9.10742
G1 X151.914 Y142.874 E9.1371
G1 X151.418 Y143.606 E9.17019
G1 X150.958 Y144.141 E9.19659
G1 X150.361 Y144.695 E9.22707
G1 X149.459 Y145.342 E9.2686
G1 X148.728 Y145.779 E9.30047
G1 X148.174 Y146.034 E9.32329
G1 X147.556 Y146.283 E9.34822
G1 X146.888 Y146.509 E9.37461
G1 X146.199 Y146.658 E9.40098
G1 X145.694 Y146.717 E9.42001
G1 X144.868 Y146.779 E9.451
G1 X143.772 Y146.78 E9.49201
G1 X142.755 Y146.766 E9.53007
G1 X108.696 Y146.77 E10.80448
G1 X107.904 Y146.759 E10.83411
G1 X107.201 Y146.709 E10.86048
G1 X106.507 Y146.58 E10.8869
G1 X105.833 Y146.373 E10.91328
G1 X105.186 Y146.091 E10.93969
G1 X104.576 Y145.738 E10.96606
G1 X104.009 Y145.318 E10.99246
G1 X103.493 Y144.837 E11.01886
G1 X103.036 Y144.3 E11.04524
G1 X102.641 Y143.715 E11.07165
G1 X102.316 Y143.089 E11.09804
G1 X102.064 Y142.43 E11.12444
G1 X101.887 Y141.747 E11.15084
G1 X101.771 Y140.719 E11.18955
G1 X101.758 Y140.195 E11.20917
G1 X101.764 Y125.37 E11.76388
G1 X101.787 Y124.041 E11.81362
G1 X101.84 Y123.081 E11.8496
G1 X102.002 Y121.861 E11.89565
G1 X102.205 Y120.862 E11.93379
G1 X102.449 Y119.996 E11.96745
G1 X102.701 Y119.213 E11.99823
G1 X102.97 Y118.473 E12.02769
G1 X103.317 Y117.702 E12.05933
G1 X103.889 Y116.559 E12.10716
G1 X104.423 Y115.703 E12.14491
G1 X104.986 Y114.889 E12.18194
G1 X105.466 Y114.251 E12.21181
G1 X106.291 Y113.313 E12.25856
G1 X107.187 Y112.442 E12.30531
G1 F2100 E6.30531
G0 F3000 X111.341 Y117.379
G1 F2100 E12.30531
G1 F1500 X111.897 Y116.889 E12.33304
G1 X112.474 Y116.451 E12.36015
G1 X113.094 Y116.051 E12.38776
G1 X113.748 Y115.695 E12.41562
G1 X114.434 Y115.383 E12.44382
G1 X115.115 Y115.132 E12.47097
G1 X115.818 Y114.93 E12.49834
G1 X116.539 Y114.781 E12.52589
G1 X117.268 Y114.68 E12.55343
G1 X145.003 Y114.689 E13.59121
G1 X145.606 Y114.859 E13.61465
G1 X145.698 Y114.915 E13.61868
G1 X146.03 Y115.114 E13.63316
G1 X146.358 Y115.442 E13.65052
G1 X146.552 Y115.763 E13.66455
G1 X146.607 Y115.853 E13.6685
G1 X146.788 Y116.389 E13.68967
G1 X146.79 Y138.4 E14.51327
G1 X146.725 Y138.795 E14.52825
G1 X146.708 Y138.898 E14.53215
G1 X146.483 Y139.388 E14.55233
G1 X146.273 Y139.63 E14.56432
G1 X146.227 Y139.734 E14.56857
G1 X145.709 Y140.094 E14.59218
G1 X145.51 Y140.171 E14.60016
G1 X145.223 Y140.282 E14.61168
G1 X145.205 Y140.278 E14.61237
G1 X145.193 Y140.279 E14.61282
G1 X144.641 Y140.334 E14.63357
G1 X144.601 Y140.316 E14.63521
G1 X108.208 Y140.32 E15.99695
G1 X108.213 Y124.645 E16.58348
G1 X108.238 Y123.917 E16.61073
G1 X108.322 Y123.157 E16.63934
G1 X108.453 Y122.448 E16.66632
G1 X108.645 Y121.739 E16.69381
G1 X108.89 Y121.024 E16.72209
G1 X109.177 Y120.364 E16.74902
G1 X109.516 Y119.705 E16.77675
G1 X109.909 Y119.072 E16.80462
G1 X110.344 Y118.47 E16.83242
G1 X110.813 Y117.917 E16.85955
G1 X111.341 Y117.379 E16.88775
G0 F3000 X111.518 Y117.565
G1 F1500 X111.506 Y117.577 E16.88839
G1 X111.014 Y118.08 E16.91472
G1 X111.004 Y118.091 E16.91527
G1 X110.553 Y118.622 E16.94134
G1 X110.542 Y118.636 E16.94201
G1 X110.127 Y119.211 E16.96854
G1 X110.118 Y119.224 E16.96913
G1 X109.745 Y119.826 E16.99563
G1 X109.736 Y119.841 E16.99628
G1 X109.417 Y120.453 E17.02211
G1 X109.41 Y120.468 E17.02273
G1 X109.129 Y121.124 E17.04943
G1 X109.123 Y121.139 E17.05003
G1 X108.89 Y121.812 E17.07668
G1 X108.885 Y121.829 E17.07735
G1 X108.711 Y122.492 E17.10299
G1 X108.708 Y122.508 E17.1036
G1 X108.581 Y123.19 E17.12956
G1 X108.578 Y123.206 E17.13017
G1 X108.498 Y123.918 E17.15698
G1 X108.497 Y123.935 E17.15762
G1 X108.47 Y124.718 E17.18693
G1 X108.47 Y124.726 E17.18723
G1 X108.474 Y139.83 E17.75239
G1 X108.513 Y139.957 E17.75736
G1 X108.617 Y140.039 E17.76231
G1 X108.699 Y140.055 E17.76544
G1 X144.871 Y140.057 E19.11891
G1 X144.913 Y140.053 E19.12049
G1 X145.3 Y139.98 E19.13523
G1 X145.37 Y139.954 E19.13802
G1 X146.027 Y139.579 E19.16633
G1 X146.119 Y139.479 E19.17141
G1 X146.508 Y138.648 E19.20574
G1 X146.529 Y138.553 E19.20938
G1 X146.529 Y116.548 E20.03276
G1 X146.519 Y116.483 E20.03522
G1 X146.314 Y115.806 E20.06169
G1 X146.257 Y115.711 E20.06583
G1 X145.754 Y115.212 E20.09234
G1 X145.661 Y115.157 E20.09639
G1 X144.99 Y114.954 E20.12262
G1 X144.925 Y114.944 E20.12508
G1 X117.288 Y114.944 E21.15919
G1 X117.259 Y114.946 E21.16028
G1 X116.601 Y115.033 E21.18511
G1 X116.584 Y115.036 E21.18576
G1 X115.885 Y115.182 E21.21248
G1 X115.869 Y115.186 E21.2131
G1 X115.22 Y115.373 E21.23837
G1 X115.205 Y115.378 E21.23896
G1 X114.53 Y115.624 E21.26584
G1 X114.514 Y115.63 E21.26648
G1 X113.865 Y115.924 E21.29314
G1 X113.85 Y115.932 E21.29378
G1 X113.233 Y116.269 E21.32008
G1 X113.219 Y116.277 E21.32069
G1 X112.644 Y116.647 E21.34627
G1 X112.63 Y116.657 E21.34691
G1 X112.055 Y117.094 E21.37394
G1 X112.042 Y117.104 E21.37455
G1 X111.518 Y117.565 E21.40067
G1 F2100 E15.40067
;MESH:Cutter_-_front_blade_cap.stl
G0 F3000 X111.777 Y119.605
G0 X110.52 Y124.757
G0 X110.27 Y124.749
;TYPE:WALL-INNER
G1 F2100 E21.40067
G1 F1500 X110.274 Y138.255 E21.90603
G1 X144.729 Y138.257 E23.19525
G1 X144.729 Y116.744 E24.00022
G1 X117.399 Y116.744 E25.02284
G1 X116.889 Y116.811 E25.04209
G1 X116.317 Y116.931 E25.06396
G1 X115.764 Y117.09 E25.08549
G1 X115.197 Y117.297 E25.10808
G1 X114.67 Y117.536 E25.12973
G1 X114.156 Y117.816 E25.15163
G1 X113.657 Y118.138 E25.17385
G1 X113.19 Y118.493 E25.1958
G1 X112.75 Y118.881 E25.21775
G1 X112.339 Y119.3 E25.23971
G1 X111.96 Y119.748 E25.26167
G1 X111.616 Y120.224 E25.28364
G1 X111.307 Y120.723 E25.30561
G1 X111.037 Y121.242 E25.3275
G1 X110.806 Y121.782 E25.34947
G1 X110.614 Y122.337 E25.37145
G1 X110.465 Y122.903 E25.39335
G1 X110.362 Y123.465 E25.41473
G1 X110.293 Y124.065 E25.43732
G1 X110.27 Y124.749 E25.46293
G0 F3000 X109.82 Y124.741
;TYPE:WALL-OUTER
G1 F1500 X109.824 Y138.705 E25.98543
G1 X144.835 Y138.706 E27.29546
G1 X145.046 Y138.584 E27.30458
G1 X145.179 Y138.303 E27.31621
G1 X145.179 Y116.715 E28.12399
G1 X145.105 Y116.47 E28.13356
G1 X145.004 Y116.37 E28.13888
G1 X144.756 Y116.294 E28.14859
G1 X117.369 Y116.294 E29.17334
G1 X116.813 Y116.367 E29.19433
G1 X116.209 Y116.494 E29.21742
G1 X115.624 Y116.662 E29.2402
G1 X115.027 Y116.88 E29.26398
G1 X114.469 Y117.133 E29.2869
G1 X113.926 Y117.429 E29.31004
G1 X113.399 Y117.769 E29.33351
G1 X112.905 Y118.145 E29.35674
G1 X112.44 Y118.554 E29.37991
G1 X112.006 Y118.997 E29.40312
G1 X111.606 Y119.47 E29.42629
G1 X111.242 Y119.973 E29.44953
G1 X110.915 Y120.501 E29.47276
G1 X110.63 Y121.05 E29.49591
G1 X110.386 Y121.62 E29.51911
G1 X110.183 Y122.206 E29.54232
G1 X110.025 Y122.805 E29.5655
G1 X109.916 Y123.399 E29.58809
G1 X109.844 Y124.032 E29.61193
G1 X109.82 Y124.741 E29.63847
G0 F3000 X109.82 Y124.941
G0 X110.697 Y124.758
;TYPE:SKIN
G1 F1500 X110.72 Y124.102 E29.66304
G1 X110.785 Y123.525 E29.68476
G1 X110.881 Y123 E29.70473
G1 X111.021 Y122.466 E29.72539
G1 X111.205 Y121.94 E29.74624
G1 X111.422 Y121.429 E29.76701
G1 X111.676 Y120.939 E29.78766
G1 X111.969 Y120.465 E29.80852
G1 X112.295 Y120.015 E29.82931
G1 X112.651 Y119.592 E29.84999
G1 X113.042 Y119.193 E29.8709
G1 X113.458 Y118.827 E29.89163
G1 X113.901 Y118.49 E29.91246
G1 X114.379 Y118.182 E29.93373
G1 X114.864 Y117.917 E29.95441
G1 X115.355 Y117.695 E29.97458
G1 X115.896 Y117.497 E29.99613
G1 X116.417 Y117.348 E30.01641
G1 X117.253 Y117.171 E30.04838
G1 X144.302 Y117.171 E31.06049
G1 X144.302 Y137.829 E31.83347
G1 X110.701 Y137.828 E33.09074
G1 X110.697 Y124.758 E33.57979
G0 F3000 X111.51 Y137.602
G1 F1500 X110.925 Y137.017 E33.61074
G0 F3000 X110.925 Y136.381
G1 F1500 X112.146 Y137.602 E33.67535
G0 F3000 X112.782 Y137.602
G1 F1500 X110.925 Y135.744 E33.77365
G0 F3000 X110.924 Y135.107
G1 F1500 X113.419 Y137.602 E33.90567
G0 F3000 X114.055 Y137.602
G1 F1500 X110.924 Y134.471 E34.07136
G0 F3000 X110.924 Y133.834
G1 F1500 X114.692 Y137.602 E34.27074
G0 F3000 X115.328 Y137.602
G1 F1500 X110.923 Y133.197 E34.50384
G0 F3000 X110.923 Y132.561
G1 F1500 X115.964 Y137.602 E34.77059
G0 F3000 X116.601 Y137.602
G1 F1500 X110.923 Y131.924 E35.07105
G0 F3000 X110.923 Y131.288
G1 F1500 X117.237 Y137.602 E35.40517
G0 F3000 X117.873 Y137.602
G1 F1500 X110.923 Y130.651 E35.77297
G0 F3000 X110.923 Y130.015
G1 F1500 X118.51 Y137.602 E36.17444
G0 F3000 X119.146 Y137.602
G1 F1500 X110.923 Y129.378 E36.6096
G0 F3000 X110.922 Y128.741
G1 F1500 X119.783 Y137.602 E37.0785
G0 F3000 X120.419 Y137.602
G1 F1500 X110.922 Y128.105 E37.58105
G0 F3000 X110.922 Y127.468
G1 F1500 X121.055 Y137.602 E38.11728
G0 F3000 X121.692 Y137.602
G1 F1500 X110.921 Y126.831 E38.68724
G0 F3000 X110.921 Y126.195
G1 F1500 X122.328 Y137.602 E39.29086
G0 F3000 X122.965 Y137.602
G1 F1500 X110.921 Y125.558 E39.92819
G0 F3000 X110.921 Y124.922
G1 F1500 X123.601 Y137.602 E40.59917
G0 F3000 X124.237 Y137.602
G1 F1500 X110.937 Y124.302 E41.30296
G0 F3000 X110.989 Y123.717
G1 F1500 X124.874 Y137.602 E42.0377
G0 F3000 X125.51 Y137.602
G1 F1500 X111.078 Y123.17 E42.8014
G0 F3000 X111.202 Y122.657
G1 F1500 X126.147 Y137.602 E43.59223
G0 F3000 X126.783 Y137.602
G1 F1500 X111.359 Y122.178 E44.40842
G0 F3000 X111.541 Y121.723
G1 F1500 X127.419 Y137.602 E45.24865
G0 F3000 X128.057 Y137.602
G1 F1500 X111.745 Y121.291 E46.1118
G0 F3000 X111.973 Y120.883
G1 F1500 X128.693 Y137.602 E46.99654
G0 F3000 X129.329 Y137.602
G1 F1500 X112.222 Y120.495 E47.90178
G0 F3000 X112.492 Y120.128
G1 F1500 X129.966 Y137.602 E48.82645
G0 F3000 X130.602 Y137.602
G1 F1500 X112.782 Y119.783 E49.76939
G0 F3000 X113.094 Y119.458
G1 F1500 X131.239 Y137.602 E50.72954
G0 F3000 X131.875 Y137.602
G1 F1500 X113.426 Y119.153 E51.7058
G0 F3000 X113.776 Y118.867
G1 F1500 X132.511 Y137.602 E52.69719
G0 F3000 X133.148 Y137.602
G1 F1500 X114.144 Y118.599 E53.70279
G0 F3000 X114.534 Y118.352
G1 F1500 X133.784 Y137.602 E54.72143
G0 F3000 X134.42 Y137.602
G1 F1500 X114.946 Y118.128 E55.75193
G0 F3000 X115.382 Y117.928
G1 F1500 X135.057 Y137.602 E56.79303
G0 F3000 X135.693 Y137.602
G1 F1500 X115.845 Y117.754 E57.84332
G0 F3000 X116.332 Y117.605
G1 F1500 X136.33 Y137.602 E58.90152
G0 F3000 X136.966 Y137.602
G1 F1500 X116.849 Y117.485 E59.96604
G0 F3000 X117.395 Y117.395
G1 F1500 X137.602 Y137.602 E61.03533
G0 F3000 X138.239 Y137.602
G1 F1500 X118.032 Y117.395 E62.10461
G0 F3000 X118.668 Y117.395
G1 F1500 X138.875 Y137.602 E63.1739
G0 F3000 X139.512 Y137.602
G1 F1500 X119.305 Y117.395 E64.24318
G0 F3000 X119.941 Y117.395
G1 F1500 X140.148 Y137.602 E65.31247
G0 F3000 X140.784 Y137.602
G1 F1500 X120.577 Y117.395 E66.38175
G0 F3000 X121.214 Y117.395
G1 F1500 X141.421 Y137.602 E67.45104
G0 F3000 X142.057 Y137.602
G1 F1500 X121.85 Y117.395 E68.52032
G0 F3000 X122.487 Y117.395
G1 F1500 X142.694 Y137.602 E69.58961
G0 F3000 X143.33 Y137.602
G1 F1500 X123.123 Y117.395 E70.65889
G0 F3000 X123.759 Y117.395
