;FLAVOR:Marlin
;TIME:1063
;Filament used: 0m, 1.27399m
;Layer height: 0.2
;MINX:102.225
;MINY:108.697
;MINZ:0.2
;MAXX:152.772
;MAXY:146.304
;MAXZ:5
;TARGET_MACHINE.NAME:Geeetech MizarM
;Generated with Cura_SteamEngine 5.6.0
T1
M82 ;absolute extrusion mode
;Official open-source firmware for MizarM: https://github.com/Geeetech3D/Mizar-M 

M104 S205 ; Set Hotend Temperature
M190 S55 ; Wait for Bed Temperature
M109 S205 ; Wait for Hotend Temperature
G92 E0 ; Reset Extruder
G28 ; Home all axes
M107 P0 ;Off Main Fan
M107 P1 ;Off Aux Fan
M2012 P8 S1 F100 ; ON Light
;M106 P0 S383 ; ON MainFan 150% if need
;M106 P1 S255 ; ON Aux Fan 100% if need
G1 Z5.0 F3000 ;Move Z Axis up little to prevent scratching of Heat Bed
G1 X0.1 Y20 Z0.8 F5000 ; Move to start position
G1 X0.1 Y200.0 Z1.2 F1500 E30 ; Draw the first line
G92 E0 ; Reset Extruder
G1 X0.4 Y200.0 Z1.2 F3000 ; Move to side a little
G1 X0.4 Y20 Z1.2 F1500 E25 ; Draw the second line
G92 E0 ; Reset Extruder
G1 Z2.0 F3000 ; Move Z Axis up little to prevent scratching of Heat Bed
G1 X5 Y20 Z0.4 F3000.0 ; Scrape off nozzle residue
G92 E0
G92 E0
G1 F2100 E-6
;LAYER_COUNT:25
;LAYER:0
M107
M104 T0 S175
G0 F3000 X104.33 Y110.528 Z0.2
;TYPE:SKIRT
G1 F2100 E0
G1 F1500 X104.908 Y110.041 E0.02828
G1 X105.538 Y109.622 E0.05659
G1 X106.212 Y109.277 E0.08492
G1 X106.919 Y109.012 E0.11317
G1 X107.603 Y108.837 E0.13959
G1 X108.732 Y108.709 E0.18211
G1 X109.281 Y108.697 E0.20265
G1 X144.173 Y108.703 E1.50823
G1 X144.986 Y108.715 E1.53866
G1 X145.627 Y108.765 E1.56271
G1 X146.326 Y108.859 E1.5891
G1 X147.105 Y109.054 E1.61915
G1 X147.759 Y109.293 E1.6452
G1 X148.478 Y109.623 E1.67481
G1 X149.263 Y110.094 E1.70906
G1 X149.973 Y110.632 E1.74239
G1 X150.554 Y111.187 E1.77246
G1 X151.06 Y111.784 E1.80174
G1 X151.475 Y112.354 E1.82812
G1 X151.965 Y113.227 E1.86558
G1 X152.341 Y114.143 E1.90263
G1 X152.631 Y115.257 E1.9457
G1 X152.751 Y116.457 E1.99083
G1 X152.772 Y117.621 E2.03439
G1 X152.763 Y137.936 E2.79453
G1 X152.753 Y138.6 E2.81938
G1 X152.703 Y139.303 E2.84575
G1 X152.557 Y140.093 E2.87581
G1 X152.336 Y140.841 E2.90499
G1 X152.054 Y141.582 E2.93466
G1 X151.608 Y142.432 E2.97058
G1 X151.052 Y143.239 E3.00725
G1 X150.417 Y143.955 E3.04306
G1 X149.773 Y144.533 E3.07544
G1 X148.849 Y145.17 E3.11743
G1 X148.021 Y145.597 E3.15229
G1 X147.221 Y145.905 E3.18436
G1 X146.339 Y146.141 E3.21853
G1 X145.453 Y146.271 E3.25203
G1 X144.104 Y146.297 E3.30252
G1 X117.974 Y146.304 E4.28024
G1 X117.182 Y146.292 E4.30988
G1 X116.449 Y146.238 E4.33738
G1 X115.623 Y146.117 E4.36862
G1 X114.508 Y145.9 E4.41112
G1 X113.811 Y145.709 E4.43816
G1 X112.895 Y145.424 E4.47406
G1 X111.832 Y145.006 E4.5168
G1 X110.733 Y144.474 E4.56249
G1 X109.737 Y143.9 E4.6055
G1 X108.713 Y143.203 E4.65185
G1 X107.829 Y142.498 E4.69416
G1 X106.935 Y141.673 E4.73968
G1 X106.147 Y140.829 E4.78288
G1 X105.399 Y139.9 E4.82751
G1 X104.738 Y138.941 E4.87109
G1 X104.132 Y137.905 E4.916
G1 X103.626 Y136.871 E4.95907
G1 X103.167 Y135.733 E5.00499
G1 X102.83 Y134.668 E5.04679
G1 X102.549 Y133.502 E5.09166
G1 X102.365 Y132.378 E5.13428
G1 X102.264 Y131.271 E5.17588
G1 X102.232 Y129.554 E5.24013
G1 X102.225 Y116.03 E5.74617
G1 X102.238 Y115.244 E5.77558
G1 X102.29 Y114.54 E5.802
G1 X102.44 Y113.747 E5.8322
G1 X102.667 Y113.026 E5.86048
G1 X102.973 Y112.335 E5.88876
G1 X103.356 Y111.682 E5.91708
G1 X103.81 Y111.077 E5.94539
G1 X104.33 Y110.528 E5.97368
G0 F3000 X104.621 Y110.871
G1 F1500 X105.159 Y110.415 E6.00007
G1 X105.745 Y110.022 E6.02647
G1 X106.372 Y109.698 E6.05288
G1 X107.031 Y109.448 E6.07925
G1 X107.715 Y109.273 E6.10567
G1 X108.742 Y109.159 E6.14433
G1 X109.281 Y109.147 E6.16451
G1 X144.167 Y109.153 E7.46986
G1 X144.952 Y109.164 E7.49923
G1 X145.567 Y109.211 E7.52231
G1 X146.266 Y109.305 E7.5487
G1 X146.951 Y109.477 E7.57513
G1 X147.605 Y109.716 E7.60118
G1 X148.247 Y110.009 E7.62759
G1 X148.991 Y110.453 E7.66001
G1 X149.701 Y110.991 E7.69334
G1 X150.211 Y111.478 E7.71973
G1 X150.696 Y112.049 E7.74776
G1 X151.111 Y112.619 E7.77414
G1 X151.572 Y113.446 E7.80957
G1 X151.906 Y114.258 E7.84242
G1 X152.183 Y115.302 E7.88284
G1 X152.301 Y116.465 E7.92658
G1 X152.322 Y117.621 E7.96984
G1 X152.313 Y137.93 E8.72975
G1 X152.304 Y138.568 E8.75363
G1 X152.254 Y139.271 E8.78
G1 X152.125 Y139.965 E8.80641
G1 X151.904 Y140.713 E8.8356
G1 X151.656 Y141.373 E8.86198
G1 X151.21 Y142.223 E8.8979
G1 X150.715 Y142.941 E8.93053
G1 X150.116 Y143.62 E8.96441
G1 X149.472 Y144.198 E8.99679
G1 X148.641 Y144.771 E9.03456
G1 X147.858 Y145.178 E9.06758
G1 X147.104 Y145.471 E9.09784
G1 X146.272 Y145.696 E9.13009
G1 X145.444 Y145.821 E9.16143
G1 X144.104 Y145.847 E9.21158
G1 X117.98 Y145.854 E10.18908
G1 X117.215 Y145.843 E10.2177
G1 X116.482 Y145.789 E10.2452
G1 X115.709 Y145.675 E10.27444
G1 X114.594 Y145.458 E10.31694
G1 X113.944 Y145.279 E10.34217
G1 X113.06 Y145.005 E10.3768
G1 X111.997 Y144.587 E10.41954
G1 X110.958 Y144.084 E10.46273
G1 X109.962 Y143.51 E10.50575
G1 X108.994 Y142.851 E10.54956
G1 X108.11 Y142.146 E10.59187
G1 X107.264 Y141.366 E10.63493
G1 X106.497 Y140.546 E10.67694
G1 X105.769 Y139.644 E10.72031
G1 X105.126 Y138.713 E10.76265
G1 X104.536 Y137.707 E10.80629
G1 X104.03 Y136.673 E10.84936
G1 X103.596 Y135.597 E10.89278
G1 X103.259 Y134.532 E10.93457
G1 X102.993 Y133.429 E10.97703
G1 X102.813 Y132.337 E11.01844
G1 X102.714 Y131.263 E11.0588
G1 X102.682 Y129.554 E11.12275
G1 X102.675 Y116.037 E11.62853
G1 X102.687 Y115.277 E11.65697
G1 X102.739 Y114.573 E11.68338
G1 X102.87 Y113.88 E11.70977
G1 X103.079 Y113.207 E11.73614
G1 X103.362 Y112.561 E11.76253
G1 X103.717 Y111.951 E11.78894
G1 X104.138 Y111.385 E11.81533
G1 X104.621 Y110.871 E11.84173
G1 F2100 E5.84173
;MESH:Cutter_-_back_blade_cap.stl
G0 F3000 X110.037 Y115.405
G0 X110.038 Y116.509
G0 X116.39 Y137.831
G0 X116.329 Y138.072
;TYPE:WALL-INNER
G1 F2100 E11.84173
G1 F1500 X117.227 Y138.256 E11.87603
G1 X144.73 Y138.256 E12.90512
G1 X144.728 Y116.744 E13.71005
G1 X110.274 Y116.745 E14.99924
G1 X110.271 Y130.342 E15.50801
G1 X110.294 Y130.934 E15.53018
G1 X110.361 Y131.536 E15.55284
G1 X110.466 Y132.096 E15.57416
G1 X110.617 Y132.674 E15.59651
G1 X110.81 Y133.227 E15.61843
G1 X111.038 Y133.756 E15.63998
G1 X111.308 Y134.276 E15.66191
G1 X111.617 Y134.775 E15.68387
G1 X111.961 Y135.251 E15.70584
G1 X112.34 Y135.699 E15.7278
G1 X112.751 Y136.118 E15.74976
G1 X113.191 Y136.506 E15.77171
G1 X113.658 Y136.861 E15.79366
G1 X114.157 Y137.183 E15.81588
G1 X114.672 Y137.464 E15.83783
G1 X115.183 Y137.697 E15.85885
G1 X115.758 Y137.908 E15.88177
G1 X116.329 Y138.072 E15.904
G0 F3000 X116.221 Y138.509
;TYPE:WALL-OUTER
G1 F1500 X116.835 Y138.635 E15.92745
G1 X117.369 Y138.706 E15.94761
G1 X144.756 Y138.706 E16.97236
G1 X145.002 Y138.63 E16.982
G1 X145.1 Y138.532 E16.98718
G1 X145.18 Y138.274 E16.99729
G1 X145.178 Y116.691 E17.80488
G1 X145.047 Y116.415 E17.81631
G1 X144.837 Y116.295 E17.82536
G1 X109.824 Y116.295 E19.13546
G1 X109.821 Y130.35 E19.66137
G1 X109.845 Y130.968 E19.68451
G1 X109.915 Y131.602 E19.70837
G1 X110.026 Y132.194 E19.73091
G1 X110.186 Y132.805 E19.75454
G1 X110.39 Y133.391 E19.77776
G1 X110.631 Y133.949 E19.80051
G1 X110.916 Y134.498 E19.82365
G1 X111.243 Y135.026 E19.84689
G1 X111.607 Y135.529 E19.87012
G1 X112.007 Y136.002 E19.8933
G1 X112.441 Y136.445 E19.91651
G1 X112.906 Y136.854 E19.93968
G1 X113.4 Y137.23 E19.96291
G1 X113.927 Y137.57 E19.98637
G1 X114.47 Y137.866 E20.00951
G1 X115.011 Y138.113 E20.03177
G1 X115.618 Y138.336 E20.05596
G1 X116.221 Y138.509 E20.07944
G0 F3000 X116.417 Y138.549
G0 X116.557 Y137.865
G0 X117.271 Y137.829
;TYPE:SKIN
G1 F1500 X116.429 Y137.655 E20.11161
G1 X115.895 Y137.502 E20.13239
G1 X115.324 Y137.293 E20.15515
G1 X114.867 Y137.082 E20.17398
G1 X114.379 Y136.817 E20.19476
G1 X113.901 Y136.509 E20.21604
G1 X113.459 Y136.172 E20.23683
G1 X113.043 Y135.806 E20.25757
G1 X112.652 Y135.407 E20.27847
G1 X112.296 Y134.984 E20.29916
G1 X111.97 Y134.534 E20.31995
G1 X111.677 Y134.061 E20.34077
G1 X111.422 Y133.568 E20.36153
G1 X111.208 Y133.069 E20.38185
G1 X111.024 Y132.545 E20.40263
G1 X110.881 Y131.997 E20.42382
G1 X110.784 Y131.476 E20.44365
G1 X110.721 Y130.899 E20.46537
G1 X110.699 Y130.335 E20.48649
G1 X110.7 Y117.172 E20.97902
G1 X144.302 Y117.17 E22.23633
G1 X144.303 Y137.83 E23.00938
G1 X117.271 Y137.829 E24.02085
G0 F3000 X114.085 Y136.359
G1 F1500 X112.216 Y134.49 E24.11975
G1 X112.137 Y134.411
G0 F3000 X111.469 Y133.107
G1 F1500 X115.467 Y137.104 E24.33128
G1 X115.546 Y137.183
G0 F3000 X116.414 Y137.415
G1 F1500 X111.155 Y132.156 E24.60957
G0 F3000 X110.998 Y131.362
G1 F1500 X117.224 Y137.588 E24.93903
G0 F3000 X117.875 Y137.603
G1 F1500 X110.937 Y130.665 E25.30617
G0 F3000 X110.924 Y130.016
G1 F1500 X118.511 Y137.603 E25.70764
G0 F3000 X119.148 Y137.603
G1 F1500 X110.924 Y129.38 E26.1428
G0 F3000 X110.924 Y128.743
G1 F1500 X119.784 Y137.603 E26.61164
G0 F3000 X120.42 Y137.603
G1 F1500 X110.924 Y128.107 E27.11414
G0 F3000 X110.924 Y127.47
G1 F1500 X121.057 Y137.603 E27.65034
G0 F3000 X121.693 Y137.603
G1 F1500 X110.924 Y126.834 E28.2202
G0 F3000 X110.924 Y126.198
G1 F1500 X122.33 Y137.603 E28.82374
G0 F3000 X122.966 Y137.603
G1 F1500 X110.924 Y125.561 E29.46096
G0 F3000 X110.924 Y124.925
G1 F1500 X123.602 Y137.603 E30.13184
G0 F3000 X124.239 Y137.603
G1 F1500 X110.924 Y124.288 E30.83642
G0 F3000 X110.924 Y123.652
G1 F1500 X124.875 Y137.603 E31.57466
G0 F3000 X125.512 Y137.603
G1 F1500 X110.924 Y123.016 E32.34658
G0 F3000 X110.924 Y122.379
G1 F1500 X126.148 Y137.603 E33.15218
G0 F3000 X126.784 Y137.603
G1 F1500 X110.924 Y121.743 E33.99144
G0 F3000 X110.924 Y121.106
G1 F1500 X127.421 Y137.603 E34.8644
G0 F3000 X128.057 Y137.603
G1 F1500 X110.924 Y120.47 E35.77102
G0 F3000 X110.924 Y119.834
G1 F1500 X128.694 Y137.603 E36.71132
G0 F3000 X129.33 Y137.603
G1 F1500 X110.924 Y119.197 E37.68531
G0 F3000 X110.924 Y118.561
G1 F1500 X129.966 Y137.603 E38.69294
G0 F3000 X130.603 Y137.603
G1 F1500 X110.924 Y117.924 E39.73429
G0 F3000 X111.032 Y117.396
G1 F1500 X131.239 Y137.603 E40.80357
G0 F3000 X131.876 Y137.603
G1 F1500 X111.669 Y117.396 E41.87286
G0 F3000 X112.305 Y117.396
G1 F1500 X132.512 Y137.603 E42.94214
G0 F3000 X133.148 Y137.603
G1 F1500 X112.941 Y117.396 E44.01143
G0 F3000 X113.578 Y117.396
G1 F1500 X133.785 Y137.603 E45.08071
G0 F3000 X134.421 Y137.603
G1 F1500 X114.214 Y117.396 E46.15
G0 F3000 X114.851 Y117.396
G1 F1500 X135.058 Y137.603 E47.21928
G0 F3000 X135.694 Y137.603
G1 F1500 X115.487 Y117.396 E48.28856
G0 F3000 X116.123 Y117.396
G1 F1500 X136.33 Y137.603 E49.35785
G0 F3000 X136.967 Y137.603
G1 F1500 X116.76 Y117.396 E50.42713
G0 F3000 X117.396 Y117.396
G1 F1500 X137.603 Y137.603 E51.49642
G0 F3000 X138.24 Y137.603
G1 F1500 X118.033 Y117.396 E52.5657
G0 F3000 X118.669 Y117.396
G1 F1500 X138.876 Y137.603 E53.63499
G0 F3000 X139.512 Y137.603
G1 F1500 X119.305 Y117.396 E54.70427
G0 F3000 X119.942 Y117.396
G1 F1500 X140.149 Y137.603 E55.77356
G0 F3000 X140.785 Y137.603
G1 F1500 X120.578 Y117.396 E56.84284
G0 F3000 X121.215 Y117.396
G1 F1500 X141.422 Y137.603 E57.91213
G0 F3000 X142.058 Y137.603
G1 F1500 X121.851 Y117.396 E58.98141
G0 F3000 X122.487 Y117.395
G1 F1500 X142.694 Y137.603 E60.05072
G0 F3000 X143.331 Y137.603
G1 F1500 X123.123 Y117.395 E61.12006
G0 F3000 X123.759 Y117.395
G1 F1500 X143.967 Y137.603 E62.1894
G0 F3000 X144.077 Y137.076
G1 F1500 X124.396 Y117.395 E63.23085
G0 F3000 X125.032 Y117.395
M104 T0 S205
G1 F1500 X144.077 Y136.44 E64.23865
G0 F3000 X144.077 Y135.804
G1 F1500 X125.669 Y117.395 E65.21276
G0 F3000 X126.305 Y117.395
G1 F1500 X144.077 Y135.167 E66.15319
G0 F3000 X144.077 Y134.531
G1 F1500 X126.941 Y117.395 E67.05997
G0 F3000 X127.578 Y117.395
G1 F1500 X144.077 Y133.894 E67.93304
G0 F3000 X144.077 Y133.258
G1 F1500 X128.214 Y117.395 E68.77246
G0 F3000 X128.851 Y117.395
G1 F1500 X144.077 Y132.622 E69.57819
G0 F3000 X144.077 Y131.985
G1 F1500 X129.487 Y117.395 E70.35024
G0 F3000 X130.123 Y117.395
G1 F1500 X144.077 Y131.349 E71.08864
G0 F3000 X144.077 Y130.712
G1 F1500 X130.76 Y117.395 E71.79333
G0 F3000 X131.396 Y117.395
G1 F1500 X144.077 Y130.076 E72.46436
G0 F3000 X144.077 Y129.44
G1 F1500 X132.033 Y117.395 E73.10172
G0 F3000 X132.669 Y117.395
G1 F1500 X144.077 Y128.803 E73.70539
G0 F3000 X144.077 Y128.167
G1 F1500 X133.305 Y117.395 E74.27541
G0 F3000 X133.941 Y117.395
G1 F1500 X144.077 Y127.53 E74.81174
G0 F3000 X144.077 Y126.894
G1 F1500 X134.577 Y117.395 E75.31442
G0 F3000 X135.214 Y117.395
M104 S200
G1 F1500 X144.077 Y126.258 E75.78342
G0 F3000 X144.077 Y125.621
G1 F1500 X135.85 Y117.395 E76.21874
G0 F3000 X136.487 Y117.395
G1 F1500 X144.077 Y124.985 E76.62038
G0 F3000 X144.077 Y124.348
G1 F1500 X137.123 Y117.395 E76.98833
G0 F3000 X137.759 Y117.395
G1 F1500 X144.077 Y123.712 E77.32263
G0 F3000 X144.077 Y123.076
G1 F1500 X138.396 Y117.395 E77.62325
G0 F3000 X139.032 Y117.395
G1 F1500 X144.077 Y122.439 E77.89019
G0 F3000 X144.077 Y121.803
G1 F1500 X139.669 Y117.395 E78.12345
G0 F3000 X140.305 Y117.395
G1 F1500 X144.077 Y121.166 E78.32302
G0 F3000 X144.077 Y120.53
G1 F1500 X140.941 Y117.395 E78.48894
G0 F3000 X141.578 Y117.395
G1 F1500 X144.077 Y119.894 E78.62118
G0 F3000 X144.077 Y119.257
G1 F1500 X142.214 Y117.395 E78.71974
G0 F3000 X142.851 Y117.395
G1 F1500 X144.077 Y118.621 E78.78461
G0 F3000 X144.077 Y117.985
G1 F1500 X143.487 Y117.395 E78.81583
G1 F1200 E62.81583
G1 F600 Z0.7
G92 E0
T0
G92 E0
M105
M109 S205
G1 F2100 E-6
G1 F600 Z0.7
;MESH:NONMESH
G0 F3000 X104.621 Y110.871 Z0.7
;TIME_ELAPSED:100.630248
;LAYER:1
G1 F1200 E-16
G1 F600 Z0.9
G92 E0
T1
G92 E0
M105
M109 S200
M104 T0 S0
M106 S255
M104 S205
M104 S200
G0 F6900 X104.621 Y110.871 Z0.9
;TYPE:SKIRT
G1 F600 Z0.4
G1 F1200 E16
G1 F1500 X105.159 Y110.415 E16.02639
G1 X105.745 Y110.022 E16.05279
G1 X106.372 Y109.698 E16.0792
G1 X107.031 Y109.448 E16.10557
G1 X107.715 Y109.273 E16.13199
G1 X108.742 Y109.159 E16.17065
G1 X109.281 Y109.147 E16.19083
G1 X144.167 Y109.153 E17.49618
G1 X144.952 Y109.164 E17.52555
G1 X145.567 Y109.211 E17.54863
G1 X146.266 Y109.305 E17.57502
G1 X146.951 Y109.477 E17.60145
G1 X147.605 Y109.716 E17.6275
G1 X148.247 Y110.009 E17.65391
G1 X148.991 Y110.453 E17.68633
G1 X149.701 Y110.991 E17.71966
G1 X150.211 Y111.478 E17.74605
G1 X150.696 Y112.049 E17.77408
G1 X151.111 Y112.619 E17.80046
G1 X151.572 Y113.446 E17.83589
G1 X151.906 Y114.258 E17.86874
G1 X152.183 Y115.302 E17.90916
G1 X152.301 Y116.465 E17.9529
G1 X152.322 Y117.621 E17.99616
G1 X152.313 Y137.93 E18.75607
G1 X152.304 Y138.568 E18.77995
G1 X152.254 Y139.271 E18.80632
G1 X152.125 Y139.965 E18.83273
G1 X151.904 Y140.713 E18.86192
G1 X151.656 Y141.373 E18.8883
G1 X151.21 Y142.223 E18.92422
G1 X150.715 Y142.941 E18.95685
G1 X150.116 Y143.62 E18.99073
G1 X149.472 Y144.198 E19.02311
G1 X148.641 Y144.771 E19.06088
G1 X147.858 Y145.178 E19.0939
G1 X147.104 Y145.471 E19.12416
G1 X146.272 Y145.696 E19.15641
G1 X145.444 Y145.821 E19.18775
G1 X144.104 Y145.847 E19.2379
G1 X117.98 Y145.854 E20.2154
G1 X117.215 Y145.843 E20.24402
G1 X116.482 Y145.789 E20.27152
G1 X115.709 Y145.675 E20.30076
G1 X114.594 Y145.458 E20.34326
G1 X113.944 Y145.279 E20.36849
G1 X113.06 Y145.005 E20.40312
G1 X111.997 Y144.587 E20.44586
G1 X110.958 Y144.084 E20.48905
G1 X109.962 Y143.51 E20.53207
G1 X108.994 Y142.851 E20.57588
G1 X108.11 Y142.146 E20.61819
G1 X107.264 Y141.366 E20.66125
G1 X106.497 Y140.546 E20.70326
G1 X105.769 Y139.644 E20.74663
G1 X105.126 Y138.713 E20.78897
G1 X104.536 Y137.707 E20.83261
G1 X104.03 Y136.673 E20.87568
G1 X103.596 Y135.597 E20.9191
G1 X103.259 Y134.532 E20.96089
G1 X102.993 Y133.429 E21.00335
G1 X102.813 Y132.337 E21.04476
