;FLAVOR:Marlin
;TIME:7655
;Filament used: 0m, 8.82788m
;Layer height: 0.25
;MINX:81.357
;MINY:79.785
;MINZ:0.15
;MAXX:174.05
;MAXY:174.319
;MAXZ:32.9
;TARGET_MACHINE.NAME:Geeetech MizarM
;Generated with Cura_SteamEngine 5.6.0
T1
M82 ;absolute extrusion mode
;Official open-source firmware for MizarM: https://github.com/Geeetech3D/Mizar-M 

M104 S205 ; Set Hotend Temperature
M190 S62.5 ; Wait for Bed Temperature
M109 S205 ; Wait for Hotend Temperature
G92 E0 ; Reset Extruder
G28 ; Home all axes
M107 P0 ;Off Main Fan
M107 P1 ;Off Aux Fan
M2012 P8 S1 F100 ; ON Light
;M106 P0 S383 ; ON MainFan 150% if need
;M106 P1 S255 ; ON Aux Fan 100% if need
G1 Z5.0 F3000 ;Move Z Axis up little to prevent scratching of Heat Bed
G1 X0.1 Y20 Z0.8 F5000 ; Move to start position
G1 X0.1 Y200.0 Z1.2 F1500 E30 ; Draw the first line
G92 E0 ; Reset Extruder
G1 X0.4 Y200.0 Z1.2 F3000 ; Move to side a little
G1 X0.4 Y20 Z1.2 F1500 E25 ; Draw the second line
G92 E0 ; Reset Extruder
G1 Z2.0 F3000 ; Move Z Axis up little to prevent scratching of Heat Bed
G1 X5 Y20 Z0.4 F3000.0 ; Scrape off nozzle residue
G92 E0
G92 E0
G1 F2100 E-6
;LAYER_COUNT:132
;LAYER:0
M107
M104 T0 S175
G0 F3000 X94.738 Y82.075 Z0.15
;TYPE:SKIRT
G1 F2100 E0
G1 F1500 X95.215 Y81.555 E0.0198
G1 X95.746 Y81.091 E0.03959
G1 X96.327 Y80.691 E0.05939
G1 X96.95 Y80.359 E0.0792
G1 X97.606 Y80.1 E0.09899
G1 X98.287 Y79.916 E0.11879
G1 X98.984 Y79.811 E0.13857
G1 X99.689 Y79.785 E0.15837
G1 X100.393 Y79.84 E0.17818
G1 X101.085 Y79.973 E0.19796
G1 X101.758 Y80.184 E0.21775
G1 X102.298 Y80.417 E0.23426
G1 X104.444 Y81.467 E0.3013
G1 X105.824 Y82.107 E0.34399
G1 X106.448 Y82.441 E0.36385
G1 X107.791 Y83.263 E0.40804
G1 X108.41 Y83.664 E0.42874
G1 X109.098 Y84.182 E0.45291
G1 X109.663 Y84.671 E0.47388
G1 X111.758 Y86.433 E0.5507
G1 X113.834 Y88.08 E0.62507
G1 X115.964 Y89.674 E0.69972
G1 X118.123 Y91.197 E0.77387
G1 X120.367 Y92.686 E0.84945
G1 X121.46 Y93.379 E0.88577
G1 X151.29 Y111.985 E1.87238
G1 X153.661 Y113.418 E1.95013
G1 X155.914 Y114.694 E2.02279
G1 X158.31 Y115.962 E2.09887
G1 X160.655 Y117.121 E2.17228
G1 X163.085 Y118.236 E2.24731
G1 X165.048 Y119.078 E2.30725
G1 X165.796 Y119.46 E2.33082
G1 X166.568 Y119.923 E2.35608
G1 X167.757 Y120.678 E2.39561
G1 X168.284 Y121.053 E2.41376
G1 X170.035 Y122.442 E2.47648
G1 X171.599 Y123.634 E2.53166
G1 X172.135 Y124.093 E2.55147
G1 X172.615 Y124.61 E2.57127
G1 X173.034 Y125.177 E2.59105
G1 X173.386 Y125.788 E2.61084
G1 X173.667 Y126.436 E2.63066
G1 X173.873 Y127.11 E2.65044
G1 X174.001 Y127.804 E2.67024
G1 X174.05 Y128.508 E2.69005
G1 X174.018 Y129.212 E2.70982
G1 X173.908 Y129.909 E2.72963
G1 X173.719 Y130.589 E2.74943
G1 X173.454 Y131.243 E2.76924
G1 X173.177 Y131.764 E2.7858
G1 X172.886 Y132.251 E2.80172
G1 X170.381 Y136.266 E2.93452
G1 X169.997 Y136.863 E2.95444
G1 X169.583 Y137.433 E2.97421
G1 X169.106 Y137.953 E2.99401
G1 X168.574 Y138.416 E3.01381
G1 X167.993 Y138.816 E3.0336
G1 X167.26 Y139.206 E3.0569
G1 X163.908 Y140.468 E3.15742
G1 X161.473 Y141.472 E3.23133
G1 X159.032 Y142.559 E3.30632
G1 X156.644 Y143.704 E3.38064
G1 X154.29 Y144.916 E3.45494
G1 X151.954 Y146.204 E3.5298
G1 X149.681 Y147.542 E3.60382
G1 X147.416 Y148.964 E3.67887
G1 X145.219 Y150.429 E3.75298
G1 X143.061 Y151.961 E3.82725
G1 X140.94 Y153.558 E3.90175
G1 X138.878 Y155.203 E3.97578
G1 X136.836 Y156.929 E4.05081
G1 X134.863 Y158.696 E4.12514
G1 X132.95 Y160.507 E4.19907
G1 X131.18 Y162.277 E4.26931
G1 X126.632 Y166.943 E4.45217
G1 X126.043 Y167.53 E4.4755
G1 X125.3 Y168.174 E4.5031
G1 X122.167 Y170.365 E4.61039
G1 X121.634 Y170.726 E4.62845
G1 X120.934 Y171.144 E4.65133
G1 X119.553 Y171.758 E4.69375
G1 X117.162 Y172.764 E4.76654
G1 X116.471 Y173.043 E4.78745
G1 X115.714 Y173.3 E4.80989
G1 X114.208 Y173.617 E4.85308
G1 X111.523 Y174.123 E4.92975
G1 X110.945 Y174.224 E4.94622
G1 X110.136 Y174.319 E4.96908
G1 X108.615 Y174.31 E5.01177
G1 X105.908 Y174.242 E5.08776
G1 X105.29 Y174.218 E5.10511
G1 X104.481 Y174.141 E5.12792
G1 X102.965 Y173.808 E5.17148
G1 X100.33 Y173.172 E5.24755
G1 X99.741 Y173.02 E5.26462
G1 X98.968 Y172.773 E5.28739
G1 X97.581 Y172.139 E5.33019
G1 X95.158 Y170.973 E5.40565
G1 X94.591 Y170.69 E5.42343
G1 X93.884 Y170.284 E5.44631
G1 X92.685 Y169.393 E5.48823
G1 X90.57 Y167.751 E5.56337
G1 X90.049 Y167.336 E5.58207
G1 X89.44 Y166.792 E5.60498
G1 X88.406 Y165.61 E5.64905
G1 X86.748 Y163.638 E5.72136
G1 X86.291 Y163.078 E5.74164
G1 X85.815 Y162.422 E5.76439
G1 X85.086 Y161.111 E5.80648
G1 X83.839 Y158.76 E5.88117
G1 X83.534 Y158.168 E5.89985
G1 X83.202 Y157.424 E5.92272
G1 X82.753 Y155.945 E5.96609
G1 X82.027 Y153.38 E6.0409
G1 X81.86 Y152.762 E6.05887
G1 X81.691 Y151.964 E6.08176
G1 X81.562 Y150.419 E6.12527
G1 X81.39 Y147.761 E6.20002
G1 X81.357 Y147.124 E6.21792
G1 X81.362 Y146.308 E6.24082
G1 X81.556 Y144.789 E6.28379
G1 X81.95 Y142.134 E6.35912
G1 X82.055 Y141.487 E6.37751
G1 X82.231 Y140.695 E6.40028
G1 X82.716 Y139.314 E6.44135
G1 X84.833 Y133.63 E6.61157
G1 X85.76 Y131.03 E6.68903
G1 X86.566 Y128.549 E6.76224
G1 X87.331 Y125.945 E6.8384
G1 X87.991 Y123.44 E6.9111
G1 X88.603 Y120.821 E6.98658
G1 X89.134 Y118.205 E7.06149
G1 X89.584 Y115.628 E7.1349
G1 X89.965 Y113.004 E7.20931
G1 X90.274 Y110.362 E7.28396
G1 X90.506 Y107.725 E7.35825
G1 X90.665 Y105.07 E7.43289
G1 X90.747 Y102.423 E7.50721
G1 X90.756 Y99.769 E7.58169
G1 X90.688 Y97.112 E7.65628
G1 X90.546 Y94.453 E7.73101
G1 X90.398 Y92.554 E7.78446
G1 X90.303 Y91.476 E7.81483
G1 X90.281 Y90.771 E7.83462
G1 X90.339 Y90.068 E7.85442
G1 X90.476 Y89.376 E7.87422
G1 X90.69 Y88.704 E7.89401
G1 X91.023 Y87.966 E7.91673
G1 X91.643 Y86.929 E7.95064
G1 X93.935 Y83.252 E8.07223
G1 X94.324 Y82.646 E8.09244
G1 X94.738 Y82.075 E8.11223
G1 F2100 E2.11223
G0 F3000 X99.631 Y86.307
G1 F2100 E8.11223
G1 F1500 X99.929 Y86.494 E8.1221
G1 X97.097 Y91.033 E8.27224
G1 X96.801 Y90.846 E8.28207
G1 X99.631 Y86.307 E8.43218
G1 F2100 E2.43218
G0 F3000 X97.51 Y91.264
G0 X98.331 Y92.333
G1 F2100 E8.43218
G1 F1500 X102.688 Y95.048 E8.57624
G1 X102.917 Y95.427 E8.58867
G1 X102.992 Y95.503 E8.59167
G1 X103.088 Y95.562 E8.59483
G1 X102.856 Y95.756 E8.60332
G1 X102.359 Y95.999 E8.61884
G1 X101.793 Y96.165 E8.6354
G1 X101.498 Y96.18 E8.64368
G1 X101.157 Y96.1 E8.65351
G1 X100.976 Y96.015 E8.65913
G1 X100.072 Y95.402 E8.68978
G1 X100.065 Y95.397 E8.69002
G1 X98.762 Y94.587 E8.73307
G1 X98.49 Y94.261 E8.74499
G1 X98.407 Y94.092 E8.75027
G1 X98.249 Y93.543 E8.76631
G1 X98.262 Y92.734 E8.78901
G1 X98.256 Y92.678 E8.79059
G1 X98.196 Y92.43 E8.79775
G1 X98.331 Y92.333 E8.80242
G0 F3000 X98.706 Y93.097
G1 F1500 X102.359 Y95.373 E8.9232
G1 X102.417 Y95.47 E8.92637
G1 X102.2 Y95.577 E8.93316
G1 X101.715 Y95.719 E8.94735
G1 X101.54 Y95.727 E8.95226
G1 X101.307 Y95.673 E8.95897
G1 X101.204 Y95.625 E8.96216
G1 X100.325 Y95.029 E8.99197
G1 X100.302 Y95.015 E8.99272
G1 X99.06 Y94.243 E9.03376
G1 X98.873 Y94.018 E9.04197
G1 X98.829 Y93.93 E9.04473
G1 X98.701 Y93.482 E9.05781
G1 X98.706 Y93.097 E9.06861
G1 F2100 E3.06861
G0 F3000 X97.51 Y91.264
G0 X100.317 Y86.762
G0 X166.818 Y128.239
G0 X164.01 Y132.739
G0 X157.869 Y129.725
G1 F2100 E9.06861
G1 F1500 X157.977 Y129.792 E9.07218
G1 X158.063 Y129.824 E9.07476
G1 X158.56 Y129.895 E9.08884
G1 X162.593 Y132.411 E9.22224
G1 X162.559 Y132.581 E9.22711
G1 X162.493 Y132.592 E9.22898
G1 X162.449 Y132.604 E9.23026
G1 X161.978 Y132.785 E9.24442
G1 X161.938 Y132.805 E9.24568
G1 X161.772 Y132.911 E9.25121
G1 X161.291 Y133.103 E9.26574
G1 X160.791 Y133.167 E9.27989
G1 X160.407 Y133.149 E9.29067
G1 X159.996 Y133.049 E9.30255
G1 X159.038 Y132.437 E9.33445
G1 X159.032 Y132.434 E9.33464
G1 X158.538 Y132.139 E9.35078
G1 X158.106 Y131.72 E9.36767
G1 X157.84 Y131.146 E9.38543
G1 X157.747 Y130.715 E9.3978
G1 X157.778 Y130.105 E9.41494
G1 X157.869 Y129.725 E9.42591
G0 F3000 X158.218 Y130.3
G1 F1500 X158.401 Y130.327 E9.4311
G1 X161.735 Y132.407 E9.54137
G1 X161.696 Y132.426 E9.54259
G1 X161.568 Y132.507 E9.54684
G1 X161.175 Y132.664 E9.55872
G1 X160.772 Y132.716 E9.57012
G1 X160.473 Y132.702 E9.57852
G1 X160.175 Y132.63 E9.58713
G1 X159.28 Y132.058 E9.61693
G1 X159.263 Y132.048 E9.61749
G1 X158.813 Y131.779 E9.6322
G1 X158.481 Y131.457 E9.64518
G1 X158.269 Y131 E9.65932
G1 X158.199 Y130.676 E9.66862
G1 X158.218 Y130.3 E9.67919
G1 F2100 E3.67919
G0 F3000 X158.819 Y131.117
G1 F2100 E9.67919
G1 F1500 X160.65 Y132.26 E9.73976
G1 X160.534 Y132.254 E9.74302
G1 X160.355 Y132.21 E9.74819
G1 X159.523 Y131.679 E9.77589
G1 X159.494 Y131.662 E9.77683
G1 X159.089 Y131.42 E9.79007
G1 X158.853 Y131.192 E9.79928
G1 X158.819 Y131.117 E9.80159
G1 F2100 E3.80159
G0 F3000 X164.4 Y133.008
G1 F2100 E9.80159
G1 F1500 X167.231 Y128.469 E9.95172
G1 X167.528 Y128.654 E9.96154
G1 X164.696 Y133.194 E10.1117
G1 X164.4 Y133.008 E10.12151
G1 F2100 E4.12151
;MESH:Puller_-_motor_mount_back.stl
G0 F3000 X163.662 Y131.235
G0 X156.161 Y126.408
G0 X156.42 Y126.662
;TYPE:WALL-INNER
G1 F2100 E10.12151
G1 F1500 X156.668 Y126.656 E10.12847
G1 X156.849 Y126.707 E10.13375
G1 X163.587 Y130.91 E10.35661
G1 X164.989 Y128.662 E10.43096
G1 X100.741 Y88.591 E12.5559
G1 X99.338 Y90.84 E12.63029
G1 X106.008 Y94.999 E12.85088
G1 X106.203 Y95.184 E12.85842
G1 X106.306 Y95.412 E12.86544
G1 X106.328 Y95.688 E12.87321
G1 X88.854 Y142.607 E14.27827
G1 X88.24 Y146.75 E14.3958
G1 X88.513 Y150.958 E14.51414
G1 X89.66 Y155.006 E14.63221
G1 X91.629 Y158.721 E14.7502
G1 X94.342 Y161.946 E14.86847
G1 X97.66 Y164.52 E14.98632
G1 X101.451 Y166.344 E15.10438
G1 X105.551 Y167.331 E15.22273
G1 X109.754 Y167.436 E15.34072
G1 X113.884 Y166.656 E15.45867
G1 X117.765 Y165.024 E15.57682
G1 X121.214 Y162.614 E15.6949
G1 X156.164 Y126.76 E17.10002
G1 X156.42 Y126.662 E17.10772
G1 F2100 E11.10772
G0 F3000 X156.161 Y126.408
G0 X120.132 Y160.288
G0 X116.879 Y162.71
G0 X113.154 Y164.317
G0 X109.195 Y165.076
G0 X109.152 Y164.829
G1 F2100 E17.10772
G1 F1500 X105.145 Y164.599 E17.22035
G1 X101.305 Y163.448 E17.33285
G1 X97.837 Y161.449 E17.44518
G1 X94.908 Y158.69 E17.55811
G1 X92.698 Y155.325 E17.67108
G1 X91.327 Y151.557 E17.78361
G1 X90.864 Y147.576 E17.89608
G1 X91.329 Y143.593 E18.00862
G1 X92.705 Y139.82 E18.12132
G1 X94.906 Y136.473 E18.23374
G1 X97.823 Y133.721 E18.34628
G1 X101.302 Y131.718 E18.45894
G1 X105.146 Y130.566 E18.57155
G1 X109.156 Y130.333 E18.68427
G1 X113.112 Y131.035 E18.79703
G1 X116.783 Y132.617 E18.90921
G1 X119.998 Y135.01 E19.02168
G1 X122.581 Y138.086 E19.1344
G1 X124.379 Y141.663 E19.24675
G1 X125.303 Y145.571 E19.35944
G1 X125.307 Y149.589 E19.4722
G1 X124.381 Y153.494 E19.58483
G1 X122.59 Y157.06 E19.69681
G1 X119.995 Y160.154 E19.81014
G1 X116.783 Y162.548 E19.92256
G1 X113.1 Y164.134 E20.03509
G1 X109.152 Y164.829 E20.14759
G0 F3000 X109.145 Y164.374
;TYPE:WALL-OUTER
G1 F1500 X105.246 Y164.154 E20.25718
G1 X101.47 Y163.025 E20.36779
G1 X98.076 Y161.06 E20.47784
G1 X95.255 Y158.396 E20.58673
G1 X93.122 Y155.156 E20.69559
G1 X91.773 Y151.469 E20.80577
G1 X91.319 Y147.595 E20.91523
G1 X91.767 Y143.72 E21.0247
G1 X93.122 Y140.005 E21.13567
G1 X95.239 Y136.786 E21.24379
G1 X98.076 Y134.101 E21.35341
G1 X101.479 Y132.132 E21.46374
G1 X105.222 Y131.01 E21.5734
G1 X109.126 Y130.785 E21.68314
G1 X112.963 Y131.46 E21.79247
G1 X116.545 Y133.003 E21.90193
G1 X119.689 Y135.343 E22.01191
G1 X122.202 Y138.335 E22.12157
G1 X123.958 Y141.833 E22.23141
G1 X124.856 Y145.625 E22.34076
G1 X124.851 Y149.561 E22.45122
G1 X123.945 Y153.36 E22.56082
G1 X122.216 Y156.803 E22.66894
G1 X119.696 Y159.812 E22.77909
G1 X116.54 Y162.161 E22.8895
G1 X112.991 Y163.691 E22.99795
G1 X109.145 Y164.374 E23.10757
G0 F3000 X108.946 Y164.363
G1 F2100 E17.10757
G0 F3000 X108.905 Y165.065
G0 X113.154 Y164.317
G0 X116.879 Y162.71
G0 X120.132 Y160.288
G0 X155.927 Y126.648
G0 X156.426 Y127.135
G1 F2100 E23.10757
G1 F1500 X156.644 Y127.114 E23.11372
G1 X163.731 Y131.53 E23.34805
G1 X165.609 Y128.518 E23.44767
G1 X100.597 Y87.971 E25.59787
G1 X98.718 Y90.984 E25.69752
G1 X105.829 Y95.418 E25.93269
G1 X105.876 Y95.61 E25.93824
G1 X88.416 Y142.494 E27.34223
G1 X87.788 Y146.731 E27.46244
G1 X88.067 Y151.035 E27.58347
G1 X89.24 Y155.174 E27.7042
G1 X91.254 Y158.974 E27.82489
G1 X94.028 Y162.272 E27.94583
G1 X97.422 Y164.905 E28.06638
G1 X101.299 Y166.77 E28.18712
G1 X105.492 Y167.78 E28.30815
G1 X109.79 Y167.887 E28.4288
G1 X114.014 Y167.089 E28.54944
G1 X117.983 Y165.42 E28.67027
G1 X121.506 Y162.958 E28.79089
G1 X156.426 Y127.135 E30.1948
G0 F3000 X156.625 Y127.116
G1 F2100 E24.1948
G0 F3000 X157.003 Y126.51
G0 X120.132 Y160.288
G0 X116.879 Y162.71
G0 X113.154 Y164.317
G0 X109.201 Y165.255
;TYPE:SKIN
G1 F2100 E30.1948
G1 F1500 X113.211 Y164.545 E30.30909
G1 X116.978 Y162.93 E30.42411
G1 X120.293 Y160.46 E30.54012
G1 X122.95 Y157.293 E30.65613
G1 X124.793 Y153.613 E30.77163
G1 X125.734 Y149.642 E30.88616
G1 X125.727 Y145.515 E31.00198
G1 X124.781 Y141.515 E31.11733
G1 X122.941 Y137.852 E31.23236
G1 X120.297 Y134.705 E31.34771
G1 X116.993 Y132.242 E31.46336
G1 X113.22 Y130.618 E31.57863
G1 X109.164 Y129.906 E31.6942
G1 X105.017 Y130.152 E31.81078
G1 X101.107 Y131.338 E31.92544
G1 X97.593 Y133.358 E32.03919
G1 X94.559 Y136.222 E32.15628
G1 X92.336 Y139.602 E32.26981
G1 X90.906 Y143.52 E32.38685
G1 X90.435 Y147.589 E32.50181
G1 X90.91 Y151.658 E32.61677
G1 X92.32 Y155.524 E32.73225
G1 X94.56 Y158.94 E32.84689
G1 X97.581 Y161.793 E32.9635
G1 X101.127 Y163.838 E33.07837
G1 X105.098 Y165.026 E33.19469
G1 X109.201 Y165.255 E33.31002
G1 F2100 E27.31002
G0 F3000 X113.154 Y164.317
G0 X116.879 Y162.71
G0 X120.132 Y160.288
G0 X156.294 Y126.254
G1 F2100 E33.31002
G1 F1500 X155.979 Y126.386 E33.3196
G1 X155.766 Y126.554 E33.32721
G1 X120.929 Y162.29 E34.72776
G1 X117.556 Y164.647 E34.84323
G1 X113.758 Y166.244 E34.95886
G1 X109.721 Y167.007 E35.07416
G1 X105.612 Y166.905 E35.1895
G1 X101.592 Y165.938 E35.30553
G1 X97.883 Y164.154 E35.42104
G1 X94.643 Y161.64 E35.53612
G1 X91.985 Y158.479 E35.65202
G1 X90.06 Y154.845 E35.76743
G1 X88.938 Y150.886 E35.88291
G1 X88.67 Y146.758 E35.999
G1 X89.268 Y142.724 E36.11344
G1 X106.693 Y95.927 E37.5148
G1 X106.749 Y95.63 E37.52328
G1 X106.726 Y95.345 E37.53131
G1 X106.575 Y94.977 E37.54247
G1 X106.234 Y94.635 E37.55602
G1 X99.926 Y90.704 E37.76461
G1 X100.877 Y89.179 E37.81504
G1 X164.401 Y128.798 E39.91603
G1 X163.451 Y130.322 E39.96643
G1 X157.016 Y126.313 E40.1792
G1 X156.765 Y126.24 E40.18653
G1 X156.294 Y126.254 E40.19976
G0 F3000 X164.006 Y129.004
G1 F1500 X163.508 Y128.506 E40.21952
G0 F3000 X163.762 Y129.397
G1 F1500 X161.817 Y127.451 E40.29673
G1 X161.738 Y127.372
G0 F3000 X160.965 Y128.509
G1 F1500 X156.743 Y124.287 E40.46429
G1 X156.664 Y124.208
G0 F3000 X156.564 Y126.017
G1 F1500 X151.67 Y121.123 E40.65852
G1 X151.591 Y121.044
G0 F3000 X149.979 Y120.068
G1 F1500 X156.042 Y126.132 E40.89917
G0 F3000 X155.641 Y126.367
G1 F1500 X148.288 Y119.014 E41.19099
G1 X148.209 Y118.935
G0 F3000 X146.597 Y117.959
G1 F1500 X155.323 Y126.685 E41.5373
G0 F3000 X155.009 Y127.007
G1 F1500 X144.905 Y116.904 E41.93828
G1 X144.826 Y116.825
G0 F3000 X143.215 Y115.85
G1 F1500 X154.695 Y127.33 E42.39389
G0 F3000 X154.381 Y127.652
G1 F1500 X141.523 Y114.795 E42.90418
G1 X141.444 Y114.716
G0 F3000 X139.833 Y113.74
G1 F1500 X154.067 Y127.975 E43.46911
G0 F3000 X153.752 Y128.296
G1 F1500 X138.141 Y112.685 E44.08867
G1 X138.062 Y112.606
G0 F3000 X136.451 Y111.631
G1 F1500 X153.438 Y128.619 E44.76286
G0 F3000 X153.124 Y128.941
G1 F1500 X134.759 Y110.576 E45.49172
G1 X134.68 Y110.497
G0 F3000 X133.068 Y109.521
G1 F1500 X152.81 Y129.264 E46.27524
G0 F3000 X152.496 Y129.585
G1 F1500 X131.377 Y108.467 E47.11338
G1 X131.298 Y108.388
