;FLAVOR:Marlin
;TIME:130
;Filament used: 0m, 0.138959m
;Layer height: 0.32
;MINX:111.347
;MINY:116.412
;MINZ:0.32
;MAXX:142.624
;MAXY:150.317
;MAXZ:1.6
;TARGET_MACHINE.NAME:Geeetech MizarM
;Generated with Cura_SteamEngine 5.6.0
T1
M82 ;absolute extrusion mode
;Official open-source firmware for MizarM: https://github.com/Geeetech3D/Mizar-M 

M104 S205 ; Set Hotend Temperature
M190 S55 ; Wait for Bed Temperature
M109 S205 ; Wait for Hotend Temperature
G92 E0 ; Reset Extruder
G28 ; Home all axes
M107 P0 ;Off Main Fan
M107 P1 ;Off Aux Fan
M2012 P8 S1 F100 ; ON Light
;M106 P0 S383 ; ON MainFan 150% if need
;M106 P1 S255 ; ON Aux Fan 100% if need
G1 Z5.0 F3000 ;Move Z Axis up little to prevent scratching of Heat Bed
G1 X0.1 Y20 Z0.8 F5000 ; Move to start position
G1 X0.1 Y200.0 Z1.2 F1500 E30 ; Draw the first line
G92 E0 ; Reset Extruder
G1 X0.4 Y200.0 Z1.2 F3000 ; Move to side a little
G1 X0.4 Y20 Z1.2 F1500 E25 ; Draw the second line
G92 E0 ; Reset Extruder
G1 Z2.0 F3000 ; Move Z Axis up little to prevent scratching of Heat Bed
G1 X5 Y20 Z0.4 F3000.0 ; Scrape off nozzle residue
G92 E0
G92 E0
G1 F2100 E-6
;LAYER_COUNT:5
;LAYER:0
M107
M104 T0 S205
G0 F3000 X115.263 Y122.285 Z0.32
;TYPE:SKIRT
G1 F2100 E0
G1 F1500 X116.195 Y121.6 E0.06925
G1 X117.732 Y120.65 E0.17742
G1 X119.949 Y119.219 E0.3354
G1 X120.938 Y118.548 E0.40695
G1 X121.804 Y117.993 E0.46853
G1 X122.748 Y117.485 E0.53271
G1 X123.318 Y117.233 E0.57002
G1 X124.243 Y116.903 E0.62882
G1 X125.092 Y116.671 E0.68151
G1 X125.833 Y116.517 E0.72682
G1 X126.654 Y116.438 E0.7762
G1 X127.376 Y116.412 E0.81945
G1 X128.354 Y116.444 E0.87803
G1 X128.885 Y116.498 E0.90999
G1 X129.843 Y116.666 E0.96821
G1 X130.557 Y116.846 E1.0123
G1 X131.484 Y117.155 E1.0708
G1 X132.023 Y117.379 E1.10574
G1 X132.985 Y117.869 E1.17038
G1 X133.81 Y118.379 E1.22844
G1 X134.321 Y118.726 E1.26542
G1 X136.523 Y120.175 E1.42323
G1 X137.628 Y120.862 E1.50113
G1 X137.72 Y120.927 E1.50788
G1 X138.813 Y121.607 E1.58494
G1 X139.751 Y122.294 E1.65455
G1 X140.375 Y122.882 E1.70588
G1 X140.927 Y123.532 E1.75693
G1 X141.369 Y124.175 E1.80365
G1 X141.724 Y124.784 E1.84585
G1 X142.087 Y125.61 E1.89986
G1 X142.321 Y126.345 E1.94604
G1 X142.513 Y127.19 E1.99792
G1 X142.613 Y128.308 E2.06512
G1 X142.624 Y129.979 E2.16516
G1 X142.613 Y130.689 E2.20768
G1 X142.523 Y131.71 E2.26904
G1 X142.305 Y133.068 E2.35138
G1 X141.931 Y135.659 E2.50811
G1 X141.594 Y138.608 E2.68581
G1 X141.535 Y139.205 E2.72172
G1 X141.4 Y140.029 E2.77171
G1 X141.17 Y140.827 E2.82143
G1 X140.62 Y142.071 E2.90286
G1 X140.041 Y143.005 E2.96865
G1 X139.533 Y143.645 E3.01757
G1 X138.809 Y144.363 E3.07861
G1 X137.749 Y145.148 E3.15758
G1 X136.225 Y146.09 E3.26484
G1 X133.967 Y147.548 E3.42576
G1 X132.795 Y148.338 E3.51038
G1 X132.093 Y148.781 E3.56007
G1 X131.282 Y149.215 E3.61514
G1 X130.624 Y149.507 E3.65824
G1 X129.736 Y149.824 E3.71469
G1 X128.882 Y150.058 E3.7677
G1 X128.141 Y150.212 E3.81301
G1 X127.308 Y150.292 E3.86311
G1 X126.534 Y150.317 E3.90947
G1 X125.614 Y150.284 E3.96459
G1 X125.063 Y150.227 E3.99775
G1 X124.118 Y150.061 E4.05519
G1 X123.411 Y149.883 E4.09884
G1 X122.542 Y149.594 E4.15367
G1 X121.897 Y149.326 E4.19548
G1 X121.07 Y148.909 E4.25093
G1 X120.337 Y148.463 E4.3023
G1 X117.49 Y146.578 E4.50672
G1 X116.343 Y145.867 E4.58751
G1 X116.234 Y145.791 E4.59546
G1 X115.13 Y145.103 E4.67334
G1 X114.207 Y144.421 E4.74205
G1 X113.498 Y143.737 E4.80103
G1 X112.711 Y142.732 E4.87745
G1 X112.252 Y141.943 E4.9321
G1 X111.907 Y141.161 E4.98327
G1 X111.656 Y140.372 E5.03284
G1 X111.471 Y139.594 E5.08071
G1 X111.358 Y138.456 E5.14918
G1 X111.347 Y137.768 E5.19037
G1 X111.348 Y136.751 E5.25126
G1 X111.359 Y136.041 E5.29377
G1 X111.448 Y135.027 E5.35471
G1 X111.69 Y133.506 E5.44692
G1 X112.069 Y130.834 E5.60848
G1 X112.363 Y128.248 E5.7643
G1 X112.418 Y127.688 E5.79799
G1 X112.673 Y126.346 E5.87977
G1 X112.976 Y125.454 E5.93617
G1 X113.579 Y124.255 E6.01652
G1 X114.149 Y123.434 E6.07635
G1 X114.611 Y122.901 E6.11858
G1 X115.263 Y122.285 E6.17228
G0 F3000 X115.53 Y122.648
G1 F1500 X116.462 Y121.963 E6.24153
G1 X117.968 Y121.033 E6.3475
G1 X120.193 Y119.597 E6.50604
G1 X121.181 Y118.927 E6.5775
G1 X122.047 Y118.372 E6.63908
G1 X122.93 Y117.897 E6.69911
G1 X123.5 Y117.645 E6.73642
G1 X124.394 Y117.327 E6.79323
G1 X125.184 Y117.112 E6.84225
G1 X125.925 Y116.958 E6.88756
G1 X126.67 Y116.888 E6.93235
G1 X127.392 Y116.862 E6.97561
G1 X128.308 Y116.892 E7.03048
G1 X128.839 Y116.946 E7.06243
G1 X129.765 Y117.109 E7.11872
G1 X130.415 Y117.273 E7.15885
G1 X131.311 Y117.571 E7.21539
G1 X131.85 Y117.795 E7.25033
G1 X132.749 Y118.252 E7.31071
G1 X133.557 Y118.751 E7.36756
G1 X134.074 Y119.102 E7.40497
G1 X136.276 Y120.551 E7.56278
G1 X137.369 Y121.23 E7.63982
G1 X137.48 Y121.308 E7.64794
G1 X138.575 Y121.989 E7.72514
G1 X139.442 Y122.622 E7.78941
G1 X140.066 Y123.21 E7.84074
G1 X140.583 Y123.822 E7.8887
G1 X140.98 Y124.402 E7.93078
G1 X141.335 Y125.011 E7.97298
G1 X141.658 Y125.747 E8.0211
G1 X141.892 Y126.482 E8.06728
G1 X142.065 Y127.231 E8.1133
G1 X142.163 Y128.311 E8.17823
G1 X142.174 Y129.972 E8.27767
G1 X142.163 Y130.682 E8.32018
G1 X142.079 Y131.639 E8.3777
G1 X141.861 Y132.997 E8.46004
G1 X141.484 Y135.608 E8.61798
G1 X141.147 Y138.557 E8.79568
G1 X141.087 Y139.16 E8.83195
G1 X140.967 Y139.907 E8.87725
G1 X140.758 Y140.646 E8.92323
G1 X140.237 Y141.835 E9.00094
G1 X139.688 Y142.726 E9.0636
G1 X139.216 Y143.325 E9.10926
G1 X138.492 Y144.043 E9.1703
G1 X137.512 Y144.765 E9.24318
G1 X135.988 Y145.707 E9.35044
G1 X133.715 Y147.175 E9.51243
G1 X132.554 Y147.958 E9.59627
G1 X131.881 Y148.384 E9.64395
G1 X131.07 Y148.818 E9.69902
G1 X130.473 Y149.083 E9.73813
G1 X129.585 Y149.4 E9.79457
G1 X128.79 Y149.617 E9.84391
G1 X128.049 Y149.771 E9.88922
G1 X127.293 Y149.842 E9.93468
G1 X126.55 Y149.867 E9.97919
G1 X125.66 Y149.836 E10.0325
G1 X125.109 Y149.779 E10.06567
G1 X124.196 Y149.618 E10.12117
G1 X123.553 Y149.456 E10.16087
G1 X122.684 Y149.167 E10.2157
G1 X122.1 Y148.924 E10.25356
G1 X121.273 Y148.507 E10.30901
G1 X120.585 Y148.088 E10.35724
G1 X117.738 Y146.203 E10.56166
G1 X116.601 Y145.498 E10.64175
G1 X116.485 Y145.417 E10.65022
G1 X115.396 Y144.74 E10.72699
G1 X114.518 Y144.096 E10.79218
G1 X113.851 Y143.458 E10.84744
G1 X113.099 Y142.504 E10.92016
G1 X112.663 Y141.76 E10.97179
G1 X112.336 Y141.024 E11.02001
G1 X112.094 Y140.268 E11.06753
G1 X111.909 Y139.49 E11.1154
G1 X111.808 Y138.449 E11.17802
G1 X111.797 Y137.768 E11.2188
G1 X111.798 Y136.758 E11.27926
G1 X111.809 Y136.048 E11.32177
G1 X111.892 Y135.098 E11.37887
G1 X112.136 Y133.569 E11.47156
G1 X112.515 Y130.897 E11.63313
G1 X112.81 Y128.299 E11.78967
G1 X112.866 Y127.732 E11.82378
G1 X113.099 Y126.491 E11.89937
G1 X113.402 Y125.599 E11.95577
G1 X113.949 Y124.511 E12.02868
G1 X114.489 Y123.729 E12.08557
G1 X114.951 Y123.196 E12.1278
G1 X115.53 Y122.648 E12.17553
G0 F3000 X115.797 Y123.01
G1 F1500 X116.698 Y122.346 E12.24254
G1 X118.204 Y121.416 E12.3485
G1 X120.437 Y119.975 E12.50761
G1 X121.424 Y119.306 E12.57899
G1 X122.29 Y118.751 E12.64057
G1 X123.113 Y118.308 E12.69653
G1 X123.651 Y118.069 E12.73177
G1 X124.545 Y117.751 E12.78858
G1 X125.277 Y117.552 E12.83399
G1 X125.967 Y117.406 E12.87622
G1 X126.686 Y117.338 E12.91946
G1 X127.408 Y117.312 E12.96271
G1 X128.262 Y117.34 E13.01386
G1 X128.793 Y117.394 E13.04582
G1 X129.687 Y117.552 E13.10017
G1 X130.273 Y117.7 E13.13635
G1 X131.138 Y117.987 E13.19092
G1 X131.677 Y118.211 E13.22586
G1 X132.513 Y118.635 E13.28198
G1 X133.304 Y119.123 E13.33762
G1 X133.827 Y119.478 E13.37546
G1 X136.029 Y120.927 E13.53328
G1 X137.112 Y121.599 E13.60958
G1 X137.231 Y121.682 E13.61827
G1 X138.311 Y122.353 E13.69439
G1 X139.133 Y122.95 E13.75521
G1 X139.757 Y123.538 E13.80654
G1 X140.212 Y124.077 E13.84877
G1 X140.591 Y124.629 E13.88886
G1 X140.946 Y125.238 E13.93106
G1 X141.229 Y125.884 E13.97328
G1 X141.454 Y126.586 E14.01741
G1 X141.617 Y127.272 E14.05963
G1 X141.713 Y128.314 E14.12227
G1 X141.724 Y129.965 E14.22112
G1 X141.713 Y130.675 E14.26363
G1 X141.635 Y131.568 E14.3173
G1 X141.417 Y132.926 E14.39964
G1 X141.037 Y135.557 E14.55879
G1 X140.7 Y138.506 E14.73649
G1 X140.642 Y139.09 E14.77162
G1 X140.533 Y139.787 E14.81386
G1 X140.345 Y140.467 E14.8561
G1 X139.853 Y141.6 E14.93005
G1 X139.333 Y142.449 E14.98965
G1 X138.899 Y143.005 E15.03188
G1 X138.175 Y143.723 E15.09292
G1 X137.275 Y144.382 E15.1597
G1 X135.751 Y145.324 E15.26696
G1 X133.463 Y146.802 E15.43004
G1 X132.313 Y147.578 E15.51309
G1 X131.669 Y147.987 E15.55877
G1 X130.858 Y148.421 E15.61384
G1 X130.322 Y148.659 E15.64895
G1 X129.434 Y148.976 E15.7054
G1 X128.697 Y149.177 E15.75113
G1 X128.007 Y149.323 E15.79335
G1 X127.277 Y149.392 E15.83725
G1 X126.565 Y149.417 E15.87991
G1 X125.706 Y149.388 E15.93136
G1 X125.155 Y149.331 E15.96452
G1 X124.274 Y149.175 E16.01809
G1 X123.695 Y149.029 E16.05384
G1 X122.826 Y148.74 E16.10866
G1 X122.302 Y148.522 E16.14264
G1 X121.507 Y148.123 E16.1959
G1 X120.833 Y147.713 E16.24313
G1 X117.986 Y145.828 E16.44754
G1 X116.859 Y145.129 E16.52694
G1 X116.743 Y145.048 E16.53541
G1 X115.661 Y144.376 E16.61166
G1 X114.827 Y143.769 E16.67342
G1 X114.203 Y143.178 E16.72487
G1 X113.487 Y142.276 E16.79382
G1 X113.051 Y141.532 E16.84545
G1 X112.765 Y140.887 E16.88769
G1 X112.523 Y140.131 E16.93521
G1 X112.357 Y139.446 E16.97741
G1 X112.258 Y138.442 E17.03781
G1 X112.247 Y137.768 E17.07816
G1 X112.248 Y136.765 E17.13821
G1 X112.259 Y136.055 E17.18072
G1 X112.336 Y135.169 E17.23396
G1 X112.582 Y133.632 E17.32715
G1 X112.961 Y130.96 E17.48872
G1 X113.257 Y128.35 E17.64598
G1 X113.314 Y127.776 E17.68051
G1 X113.526 Y126.634 E17.75005
G1 X113.805 Y125.8 E17.8027
G1 X114.32 Y124.766 E17.87186
G1 X114.829 Y124.024 E17.92573
G1 X115.291 Y123.491 E17.96796
G1 X115.797 Y123.01 E18.00975
G1 F2100 E12.00975
;MESH:Cutter_-_MS_switch_bracket.stl
G0 F3000 X120.029 Y126.875
G0 X120.535 Y127.922
G0 X123.567 Y128.171
G0 X123.488 Y127.937
;TYPE:WALL-INNER
G1 F2100 E18.00975
G1 F1500 X122.826 Y128.152 E18.05142
G1 X120.543 Y128.153 E18.1881
G1 X120.33 Y128.209 E18.20129
G1 X120.212 Y128.347 E18.21216
G1 X120.177 Y128.47 E18.21981
G1 X120.177 Y130.491 E18.34081
G1 X120.21 Y130.607 E18.34803
G1 X120.304 Y130.726 E18.35711
G1 X120.517 Y130.802 E18.37065
G1 X134.479 Y130.803 E19.20653
G1 X134.696 Y130.725 E19.22033
G1 X134.787 Y130.61 E19.22911
G1 X134.824 Y130.485 E19.23692
G1 X134.824 Y128.465 E19.35785
G1 X134.791 Y128.35 E19.36501
G1 X134.695 Y128.231 E19.37417
G1 X134.479 Y128.155 E19.38788
G1 X132.264 Y128.153 E19.52048
G1 X132.045 Y128.117 E19.53377
G1 X131.514 Y127.925 E19.56757
G1 X131.079 Y127.558 E19.60165
G1 X130.792 Y127.075 E19.63528
G1 X130.58 Y126.343 E19.68091
G1 X130.386 Y125.916 E19.70899
G1 X130.115 Y125.495 E19.73896
G1 X129.801 Y125.137 E19.76747
G1 X129.424 Y124.818 E19.79704
G1 X129.02 Y124.569 E19.82545
G1 X128.566 Y124.374 E19.85503
G1 X128.11 Y124.253 E19.88327
G1 X127.617 Y124.199 E19.91297
G1 X127.011 Y124.221 E19.94927
G1 X126.434 Y124.373 E19.98499
G1 X125.981 Y124.569 E20.01454
G1 X125.576 Y124.818 E20.04301
G1 X125.197 Y125.14 E20.07278
G1 X124.886 Y125.496 E20.10108
G1 X124.614 Y125.916 E20.13104
G1 X124.421 Y126.343 E20.15909
G1 X124.202 Y127.112 E20.20696
G1 X124.115 Y127.284 E20.2185
G1 X123.809 Y127.678 E20.24837
G1 X123.488 Y127.937 E20.27306
G0 F3000 X123.567 Y128.171
G0 X126.616 Y129.735
G0 X127.313 Y129.692
G1 F1500 X126.697 Y129.567 E20.31069
G1 X126.025 Y129.159 E20.35776
G1 X125.624 Y128.67 E20.39562
G1 X125.433 Y128.301 E20.42049
G1 X125.303 Y127.819 E20.45038
G1 X125.286 Y127.254 E20.48422
G1 X125.415 Y126.7 E20.51827
G1 X125.655 Y126.234 E20.54965
G1 X126.035 Y125.802 E20.5841
G1 X126.514 Y125.485 E20.61849
G1 X126.955 Y125.32 E20.64668
G1 X127.475 Y125.253 E20.67807
G1 X128.071 Y125.32 E20.71397
G1 X128.781 Y125.647 E20.76077
G1 X129.325 Y126.188 E20.8067
G1 X129.566 Y126.647 E20.83774
G1 X129.71 Y127.215 E20.87282
G1 X129.706 Y127.773 E20.90623
G1 X129.566 Y128.303 E20.93905
G1 X129.376 Y128.67 E20.96379
G1 X128.974 Y129.16 E21.00173
G1 X128.402 Y129.507 E21.04179
G1 X127.804 Y129.683 E21.0791
G1 X127.313 Y129.692 E21.10851
G0 F3000 X127.726 Y129.239
;TYPE:WALL-OUTER
G1 F1500 X127.26 Y129.236 E21.1364
G1 X126.832 Y129.122 E21.16292
G1 X126.325 Y128.815 E21.19841
G1 X126.023 Y128.462 E21.22622
G1 X125.845 Y128.121 E21.24925
G1 X125.741 Y127.716 E21.27428
G1 X125.737 Y127.269 E21.30104
G1 X125.839 Y126.851 E21.3268
G1 X126.033 Y126.478 E21.35197
G1 X126.303 Y126.168 E21.37658
G1 X126.663 Y125.914 E21.40296
G1 X127.071 Y125.755 E21.42918
G1 X127.525 Y125.703 E21.45653
G1 X127.928 Y125.753 E21.48085
G1 X128.527 Y126.03 E21.52036
G1 X128.968 Y126.475 E21.55786
G1 X129.154 Y126.833 E21.58202
G1 X129.263 Y127.266 E21.60875
G1 X129.262 Y127.701 E21.63479
G1 X129.166 Y128.089 E21.65872
G1 X128.977 Y128.462 E21.68375
G1 X128.645 Y128.833 E21.71356
G1 X128.168 Y129.122 E21.74695
G1 X127.726 Y129.239 E21.77432
G0 F3000 X127.526 Y129.238
G0 X127.526 Y129.942
G0 X131.283 Y128.073
G0 X131.728 Y127.529
G1 F1500 X131.443 Y127.294 E21.79644
G1 X131.207 Y126.901 E21.82388
G1 X131.004 Y126.188 E21.86826
G1 X130.782 Y125.7 E21.90036
G1 X130.475 Y125.223 E21.93432
G1 X130.117 Y124.815 E21.96682
G1 X129.689 Y124.453 E22.00038
G1 X129.228 Y124.169 E22.03279
G1 X128.714 Y123.947 E22.06631
G1 X128.193 Y123.809 E22.09858
G1 X127.633 Y123.748 E22.13231
G1 X126.945 Y123.773 E22.17352
G1 X126.286 Y123.947 E22.21433
G1 X125.772 Y124.169 E22.24785
G1 X125.311 Y124.453 E22.28026
G1 X124.882 Y124.816 E22.31391
G1 X124.525 Y125.224 E22.34636
G1 X124.218 Y125.7 E22.38027
G1 X123.997 Y126.188 E22.41235
G1 X123.776 Y126.966 E22.46077
G1 X123.517 Y127.335 E22.48776
G1 X123.271 Y127.53 E22.50655
G1 X122.779 Y127.699 E22.53769
G1 X120.51 Y127.703 E22.67354
G1 X120.283 Y127.737 E22.68728
G1 X120.084 Y127.826 E22.70033
G1 X119.919 Y127.971 E22.71348
G1 X119.798 Y128.159 E22.72686
G1 X119.727 Y128.407 E22.74231
G1 X119.726 Y130.555 E22.8709
G1 X119.796 Y130.796 E22.88593
G1 X119.92 Y130.989 E22.89966
G1 X120.073 Y131.122 E22.9118
G1 X120.439 Y131.252 E22.93505
G1 X134.556 Y131.253 E23.78021
G1 X134.927 Y131.121 E23.80379
G1 X135.079 Y130.989 E23.81584
G1 X135.202 Y130.798 E23.82944
G1 X135.274 Y130.548 E23.84502
G1 X135.274 Y128.401 E23.97355
G1 X135.205 Y128.161 E23.9885
G1 X135.082 Y127.971 E24.00205
G1 X134.925 Y127.835 E24.01449
G1 X134.557 Y127.705 E24.03786
G1 X132.225 Y127.703 E24.17747
G1 X131.728 Y127.529 E24.20899
G0 F3000 X131.574 Y127.402
G0 X131.128 Y127.947
G0 X128.384 Y129.735
G0 X126.695 Y130.003
;TYPE:SKIN
G1 F1674.9 X127.283 Y130.069 E24.24072
G1 F1859.5 X127.892 Y130.059 E24.27013
G1 F1646.3 X128.597 Y129.889 E24.30969
G1 F1500 X129.1 Y129.584 E24.34491
G1 X129.366 Y129.36 E24.36573
G1 X129.731 Y128.906 E24.4006
G1 X129.952 Y128.488 E24.42891
G1 X130.122 Y127.869 E24.46734
G1 F1310.7 X130.2 Y127.338 E24.50411
G1 F1180.1 X130.247 Y127.165 E24.51775
G1 F1331.4 X130.65 Y127.67 E24.56133
G1 F1500 X130.768 Y127.845 E24.57397
G1 X131.312 Y128.301 E24.61647
G1 X131.9 Y128.52 E24.65403
G1 X132.234 Y128.578 E24.67433
G1 X134.397 Y128.582 E24.80382
G1 X134.397 Y130.376 E24.91123
G1 X128.645 Y130.375 E25.25559
G1 F1662.6 X127.9 Y130.419 E25.2959
G1 F1880.2 X127.249 Y130.422 E25.32699
G1 F1674.9 X126.66 Y130.375 E25.35867
G1 F1500 X120.604 Y130.375 E25.72123
G1 X120.604 Y128.581 E25.82864
G1 X122.891 Y128.576 E25.96556
G1 X123.516 Y128.377 E26.00483
G1 X123.773 Y128.251 E26.02196
G1 X124.079 Y128.01 E26.04528
G1 X124.451 Y127.549 E26.08075
G1 F1188.4 X124.742 Y127.203 E26.11491
G1 F1169.8 X124.863 Y127.602 E26.14692
G1 F1470.6 X124.889 Y127.93 E26.16701
